;FLAVOR:Marlin
;TIME:2690
;Filament used: 0.908191m
;Layer height: 0.2
;MINX:66.132
;MINY:94.378
;MINZ:0.2
;MAXX:153.868
;MAXY:125.617
;MAXZ:16.4
;Generated with Cura_SteamEngine 4.8.0
M140 S35
M105
M190 S35
M104 S210
M105
M109 S210
M82 ;absolute extrusion mode
M201 X500.00 Y500.00 Z100.00 E5000.00 ;Setup machine max acceleration
M203 X500.00 Y500.00 Z10.00 E50.00 ;Setup machine max feedrate
M204 P500.00 R1000.00 T500.00 ;Setup Print/Retract/Travel acceleration
M205 X8.00 Y8.00 Z0.40 E5.00 ;Setup Jerk
M220 S100 ;Reset Feedrate
M221 S100 ;Reset Flowrate

G28 ;Home

G92 E0 ;Reset Extruder
G1 Z2.0 F3000 ;Move Z Axis up
G1 X10.1 Y20 Z0.28 F5000.0 ;Move to start position
G1 X10.1 Y200.0 Z0.28 F1500.0 E15 ;Draw the first line
G1 X10.4 Y200.0 Z0.28 F5000.0 ;Move to side a little
G1 X10.4 Y20 Z0.28 F1500.0 E30 ;Draw the second line
G92 E0 ;Reset Extruder
G1 Z2.0 F3000 ;Move Z Axis up

G92 E0
G92 E0
G1 F2700 E-5
;LAYER_COUNT:82
;LAYER:0
M107
G0 F6000 X72.586 Y98.109 Z0.2
;TYPE:SKIRT
G1 F2700 E0
G1 F1200 X73.667 Y97.453 E0.04206
G1 X74.299 Y97.118 E0.06585
G1 X74.602 Y96.963 E0.07717
G1 X75.107 Y96.715 E0.09588
G1 X75.966 Y96.338 E0.12708
G1 X76.492 Y96.148 E0.14568
G1 X77.394 Y95.89 E0.17689
G1 X78.041 Y95.755 E0.19887
G1 X78.72 Y95.634 E0.22181
G1 X79.082 Y95.575 E0.23401
G1 X79.679 Y95.489 E0.25407
G1 X80.612 Y95.395 E0.28526
G1 X81.55 Y95.381 E0.31646
G1 X82.179 Y95.417 E0.33741
G1 X84.876 Y95.605 E0.42733
G1 X87.395 Y95.707 E0.51118
G1 X89.884 Y95.738 E0.59398
G1 X92.442 Y95.697 E0.67907
G1 X94.927 Y95.587 E0.7618
G1 X97.413 Y95.407 E0.8447
G1 X97.598 Y95.396 E0.85086
G1 X98.538 Y95.381 E0.88213
G1 X99.473 Y95.406 E0.91324
G1 X100.542 Y95.45 E0.94883
G1 X103.023 Y95.482 E1.03135
G1 X105.581 Y95.442 E1.11644
G1 X108.066 Y95.333 E1.19917
G1 X110.584 Y95.151 E1.28314
G1 X113.054 Y94.902 E1.36571
G1 X115.726 Y94.555 E1.45533
G1 X116.193 Y94.488 E1.47102
G1 X117.126 Y94.395 E1.5022
G1 X118.064 Y94.381 E1.5334
G1 X118.669 Y94.415 E1.55356
G1 X119.412 Y94.478 E1.57836
G1 X120.927 Y94.625 E1.62899
G1 X123.421 Y94.795 E1.71213
G1 X125.94 Y94.896 E1.79598
G1 X128.464 Y94.925 E1.87993
G1 X130.951 Y94.884 E1.96266
G1 X133.506 Y94.769 E2.04773
G1 X135.973 Y94.588 E2.13
G1 X136.883 Y94.497 E2.16042
G1 X137.783 Y94.419 E2.19046
G1 X138.72 Y94.378 E2.22166
G1 X139.657 Y94.417 E2.25285
G1 X140.28 Y94.487 E2.2737
G1 X141.012 Y94.591 E2.29829
G1 X141.35 Y94.645 E2.30968
G1 X141.902 Y94.741 E2.32831
G1 X142.818 Y94.941 E2.3595
G1 X143.714 Y95.218 E2.39069
G1 X144.857 Y95.7 E2.43195
G1 X145.455 Y95.993 E2.4541
G1 X145.745 Y96.14 E2.46491
G1 X146.297 Y96.431 E2.48567
G1 X147.107 Y96.904 E2.51686
G1 X147.874 Y97.443 E2.54804
G1 X148.827 Y98.267 E2.58994
G1 X149.332 Y98.757 E2.61335
G1 X149.562 Y98.987 E2.62417
G1 X149.97 Y99.407 E2.64364
G1 X150.594 Y100.107 E2.67483
G1 X151.157 Y100.858 E2.70605
G1 X151.793 Y101.91 E2.74694
G1 X152.114 Y102.514 E2.76969
G1 X152.265 Y102.808 E2.78068
G1 X152.53 Y103.345 E2.8006
G1 X152.909 Y104.203 E2.83179
G1 X153.213 Y105.09 E2.86298
G1 X153.504 Y106.331 E2.90538
G1 X153.628 Y107.045 E2.92948
G1 X153.678 Y107.361 E2.94012
G1 X153.76 Y107.931 E2.95927
G1 X153.854 Y108.864 E2.99046
G1 X153.868 Y109.802 E3.02166
G1 X153.763 Y111.043 E3.06309
G1 X153.67 Y111.698 E3.08509
G1 X153.618 Y112.027 E3.09617
G1 X153.513 Y112.634 E3.11666
G1 X153.314 Y113.55 E3.14783
G1 X153.037 Y114.447 E3.17906
G1 X152.557 Y115.589 E3.22026
G1 X152.232 Y116.254 E3.24488
G1 X152.075 Y116.562 E3.25638
G1 X151.813 Y117.058 E3.27503
G1 X151.34 Y117.868 E3.30623
G1 X150.8 Y118.634 E3.3374
G1 X149.971 Y119.591 E3.37952
G1 X149.501 Y120.074 E3.40193
G1 X149.296 Y120.279 E3.41157
G1 X148.858 Y120.706 E3.43192
G1 X148.159 Y121.332 E3.46313
G1 X147.409 Y121.896 E3.49434
G1 X146.332 Y122.548 E3.53621
G1 X145.736 Y122.864 E3.55865
G1 X145.429 Y123.021 E3.57012
G1 X144.889 Y123.286 E3.59013
G1 X143.687 Y123.79 E3.63348
G1 X142.79 Y124.064 E3.66467
G1 X141.941 Y124.249 E3.69357
G1 X141.285 Y124.365 E3.71573
G1 X140.938 Y124.421 E3.72742
G1 X140.313 Y124.511 E3.74842
G1 X139.38 Y124.605 E3.77961
G1 X138.442 Y124.619 E3.81081
G1 X137.839 Y124.586 E3.8309
G1 X137.114 Y124.525 E3.8551
G1 X135.574 Y124.376 E3.90656
G1 X133.093 Y124.206 E3.98927
G1 X130.574 Y124.105 E4.07312
G1 X128.046 Y124.075 E4.15721
G1 X125.555 Y124.116 E4.24007
G1 X123.01 Y124.23 E4.3248
G1 X120.546 Y124.41 E4.40697
G1 X119.807 Y124.485 E4.43168
G1 X118.692 Y124.582 E4.4689
G1 X117.451 Y124.619 E4.5102
G1 X116.486 Y124.592 E4.5423
G1 X115.376 Y124.548 E4.57925
G1 X112.845 Y124.519 E4.66344
G1 X110.352 Y124.561 E4.74637
G1 X107.808 Y124.675 E4.83107
G1 X105.31 Y124.86 E4.91438
G1 X102.816 Y125.114 E4.99776
G1 X100.206 Y125.454 E5.0853
G1 X99.789 Y125.513 E5.09931
G1 X98.856 Y125.605 E5.13049
G1 X97.918 Y125.617 E5.16169
G1 X97.362 Y125.586 E5.18021
G1 X97.164 Y125.57 E5.18682
G1 X94.574 Y125.393 E5.27316
G1 X92.054 Y125.292 E5.35705
G1 X89.528 Y125.262 E5.44107
G1 X87.044 Y125.303 E5.5237
G1 X84.512 Y125.417 E5.608
G1 X82.306 Y125.578 E5.68156
G1 X81.908 Y125.602 E5.69483
G1 X80.97 Y125.617 E5.72603
G1 X79.726 Y125.513 E5.76755
G1 X78.99 Y125.409 E5.79227
G1 X78.643 Y125.354 E5.80396
G1 X78.097 Y125.259 E5.82239
G1 X77.181 Y125.059 E5.85357
G1 X76.285 Y124.782 E5.88477
G1 X75.134 Y124.296 E5.92632
G1 X74.517 Y123.993 E5.94918
G1 X74.243 Y123.853 E5.95942
G1 X73.711 Y123.573 E5.97941
G1 X72.9 Y123.101 E6.01062
G1 X72.133 Y122.562 E6.0418
G1 X71.17 Y121.73 E6.08413
G1 X70.65 Y121.225 E6.10824
G1 X70.42 Y120.994 E6.11908
G1 X70.027 Y120.589 E6.13785
G1 X69.403 Y119.889 E6.16904
G1 X68.841 Y119.138 E6.20024
G1 X68.205 Y118.087 E6.2411
G1 X67.878 Y117.471 E6.26429
G1 X67.733 Y117.187 E6.2749
G1 X67.473 Y116.661 E6.29441
G1 X67.094 Y115.804 E6.32558
G1 X66.789 Y114.917 E6.35678
G1 X66.496 Y113.669 E6.39942
G1 X66.372 Y112.955 E6.42352
G1 X66.322 Y112.639 E6.43416
G1 X66.24 Y112.069 E6.45331
G1 X66.146 Y111.136 E6.4845
G1 X66.132 Y110.198 E6.5157
G1 X66.237 Y108.957 E6.55713
G1 X66.33 Y108.302 E6.57913
G1 X66.382 Y107.973 E6.59021
G1 X66.487 Y107.366 E6.6107
G1 X66.686 Y106.45 E6.64187
G1 X66.963 Y105.553 E6.6731
G1 X67.443 Y104.411 E6.7143
G1 X67.768 Y103.746 E6.73892
G1 X67.928 Y103.431 E6.75067
G1 X68.191 Y102.934 E6.76937
G1 X68.665 Y102.125 E6.80056
G1 X69.206 Y101.358 E6.83178
G1 X70.027 Y100.411 E6.87346
G1 X70.482 Y99.943 E6.89517
G1 X70.688 Y99.737 E6.90486
G1 X71.138 Y99.298 E6.92577
G1 X71.836 Y98.672 E6.95696
G1 X72.586 Y98.109 E6.98815
G0 F6000 X72.84 Y98.419
G1 F1200 X73.855 Y97.806 E7.02758
G1 X74.487 Y97.471 E7.05138
G1 X74.778 Y97.322 E7.06225
G1 X75.283 Y97.074 E7.08096
G1 X76.127 Y96.705 E7.1116
G1 X76.619 Y96.528 E7.12899
G1 X77.504 Y96.275 E7.1596
G1 X78.111 Y96.148 E7.18023
G1 X78.79 Y96.027 E7.20317
G1 X79.139 Y95.971 E7.21493
G1 X79.736 Y95.885 E7.23499
G1 X80.652 Y95.794 E7.2656
G1 X81.572 Y95.782 E7.29621
G1 X82.145 Y95.815 E7.31529
G1 X82.253 Y95.824 E7.3189
G1 X84.866 Y96.005 E7.40602
G1 X87.375 Y96.107 E7.48953
G1 X89.885 Y96.138 E7.57302
G1 X92.432 Y96.097 E7.65775
G1 X94.973 Y95.985 E7.74234
G1 X97.437 Y95.807 E7.82451
G1 X97.622 Y95.796 E7.83068
G1 X98.527 Y95.781 E7.86078
G1 X99.456 Y95.806 E7.89169
G1 X100.519 Y95.85 E7.92708
G1 X103.024 Y95.882 E8.0104
G1 X105.571 Y95.842 E8.09512
G1 X108.111 Y95.731 E8.17968
G1 X110.617 Y95.55 E8.26325
G1 X113.108 Y95.298 E8.34653
G1 X115.767 Y94.953 E8.43571
G1 X116.25 Y94.884 E8.45193
G1 X117.166 Y94.793 E8.48255
G1 X118.086 Y94.782 E8.51315
G1 X118.636 Y94.814 E8.53147
G1 X119.374 Y94.876 E8.55611
G1 X120.9 Y95.024 E8.6071
G1 X123.374 Y95.193 E8.68958
G1 X125.955 Y95.296 E8.77549
G1 X128.431 Y95.325 E8.85785
G1 X131.011 Y95.282 E8.94367
G1 X133.485 Y95.171 E9.02604
G1 X136.043 Y94.983 E9.11135
G1 X136.918 Y94.896 E9.14059
G1 X137.818 Y94.818 E9.17064
G1 X138.738 Y94.778 E9.20127
G1 X139.657 Y94.818 E9.23186
G1 X140.224 Y94.883 E9.25085
G1 X140.956 Y94.987 E9.27544
G1 X141.281 Y95.039 E9.28638
G1 X141.833 Y95.135 E9.30502
G1 X142.733 Y95.332 E9.33566
G1 X143.611 Y95.606 E9.36625
G1 X144.681 Y96.059 E9.4049
G1 X145.279 Y96.352 E9.42705
G1 X145.558 Y96.494 E9.43746
G1 X146.11 Y96.785 E9.45822
G1 X146.905 Y97.249 E9.48883
G1 X147.657 Y97.781 E9.51947
G1 X148.548 Y98.555 E9.55872
G1 X149.053 Y99.045 E9.58213
G1 X149.275 Y99.266 E9.59255
G1 X149.683 Y99.686 E9.61202
G1 X150.295 Y100.374 E9.64265
G1 X150.846 Y101.112 E9.67328
G1 X151.44 Y102.097 E9.71154
G1 X151.761 Y102.701 E9.73429
G1 X151.907 Y102.985 E9.74491
G1 X152.172 Y103.522 E9.76483
G1 X152.543 Y104.365 E9.79546
G1 X152.839 Y105.236 E9.82606
G1 X153.11 Y106.399 E9.86577
G1 X153.234 Y107.113 E9.88988
G1 X153.282 Y107.418 E9.90015
G1 X153.364 Y107.988 E9.9193
G1 X153.455 Y108.904 E9.94992
G1 X153.467 Y109.824 E9.98052
G1 X153.367 Y110.987 E10.01934
G1 X153.274 Y111.642 E10.04135
G1 X153.224 Y111.959 E10.05202
G1 X153.119 Y112.566 E10.07251
G1 X152.923 Y113.465 E10.10311
G1 X152.649 Y114.344 E10.13373
G1 X152.198 Y115.413 E10.17232
G1 X151.873 Y116.078 E10.19694
G1 X151.722 Y116.375 E10.20802
G1 X151.46 Y116.871 E10.22668
G1 X150.995 Y117.666 E10.25731
G1 X150.463 Y118.417 E10.28792
G1 X149.684 Y119.312 E10.32739
G1 X149.214 Y119.795 E10.3498
G1 X149.016 Y119.993 E10.35912
G1 X148.578 Y120.42 E10.37946
G1 X147.892 Y121.033 E10.41006
G1 X147.155 Y121.585 E10.44069
G1 X146.144 Y122.195 E10.47996
G1 X145.548 Y122.511 E10.5024
G1 X145.253 Y122.662 E10.51342
G1 X144.713 Y122.927 E10.53343
G1 X143.554 Y123.413 E10.57523
G1 X142.673 Y123.681 E10.60585
G1 X141.872 Y123.855 E10.63312
G1 X141.216 Y123.971 E10.65527
G1 X140.881 Y124.025 E10.66656
G1 X140.256 Y124.115 E10.68756
G1 X139.34 Y124.206 E10.71818
G1 X138.419 Y124.218 E10.74881
G1 X137.872 Y124.187 E10.76704
G1 X137.153 Y124.126 E10.79104
G1 X135.642 Y123.979 E10.84153
G1 X133.137 Y123.808 E10.92504
G1 X130.558 Y123.705 E11.01089
G1 X128.079 Y123.675 E11.09334
G1 X125.494 Y123.718 E11.17933
G1 X123.033 Y123.828 E11.26127
G1 X120.477 Y124.015 E11.34651
G1 X119.617 Y124.101 E11.37525
G1 X118.657 Y124.184 E11.4073
G1 X117.461 Y124.219 E11.4471
G1 X116.502 Y124.193 E11.47901
G1 X115.361 Y124.148 E11.51699
G1 X112.842 Y124.119 E11.60078
G1 X110.328 Y124.161 E11.6844
G1 X107.797 Y124.275 E11.76867
G1 X105.273 Y124.461 E11.85285
G1 X102.76 Y124.718 E11.93686
G1 X100.191 Y125.052 E12.02303
G1 X99.733 Y125.117 E12.03841
G1 X98.817 Y125.207 E12.06903
G1 X97.896 Y125.216 E12.09966
G1 X97.395 Y125.188 E12.11635
G1 X97.144 Y125.168 E12.12473
G1 X94.619 Y124.995 E12.2089
G1 X92.039 Y124.892 E12.29478
G1 X89.561 Y124.862 E12.37721
G1 X86.984 Y124.905 E12.46293
G1 X84.498 Y125.017 E12.5457
G1 X82.124 Y125.189 E12.62487
G1 X81.885 Y125.203 E12.63283
G1 X80.964 Y125.217 E12.66347
G1 X79.782 Y125.117 E12.70292
G1 X79.046 Y125.013 E12.72764
G1 X78.712 Y124.96 E12.73889
G1 X78.166 Y124.865 E12.75732
G1 X77.267 Y124.668 E12.78793
G1 X76.388 Y124.394 E12.81856
G1 X75.311 Y123.937 E12.85747
G1 X74.694 Y123.634 E12.88033
G1 X74.429 Y123.499 E12.89022
G1 X73.897 Y123.219 E12.91022
G1 X73.102 Y122.755 E12.94084
G1 X72.35 Y122.224 E12.97145
G1 X71.449 Y121.443 E13.01111
G1 X70.929 Y120.938 E13.03522
G1 X70.707 Y120.716 E13.04566
G1 X70.314 Y120.311 E13.06443
G1 X69.702 Y119.623 E13.09506
G1 X69.152 Y118.884 E13.1257
G1 X68.558 Y117.899 E13.16396
G1 X68.231 Y117.283 E13.18715
G1 X68.091 Y117.01 E13.19736
G1 X67.831 Y116.484 E13.21687
G1 X67.46 Y115.642 E13.24748
G1 X67.163 Y114.77 E13.27811
G1 X66.89 Y113.601 E13.31804
G1 X66.766 Y112.887 E13.34214
G1 X66.718 Y112.582 E13.35241
G1 X66.636 Y112.012 E13.37157
G1 X66.545 Y111.096 E13.40218
G1 X66.533 Y110.176 E13.43279
G1 X66.633 Y109.013 E13.47161
G1 X66.726 Y108.358 E13.49361
G1 X66.776 Y108.041 E13.50429
G1 X66.881 Y107.434 E13.52478
G1 X67.077 Y106.535 E13.55538
G1 X67.351 Y105.656 E13.586
G1 X67.802 Y104.587 E13.62459
G1 X68.127 Y103.922 E13.64921
G1 X68.282 Y103.618 E13.66056
G1 X68.545 Y103.121 E13.67926
G1 X69.01 Y102.327 E13.70987
G1 X69.543 Y101.576 E13.7405
G1 X70.314 Y100.69 E13.77956
G1 X70.769 Y100.222 E13.80127
G1 X70.967 Y100.024 E13.81058
G1 X71.417 Y99.585 E13.83149
G1 X72.103 Y98.971 E13.86211
G1 X72.84 Y98.419 E13.89274
G0 F6000 X73.094 Y98.73
G1 F1200 X74.042 Y98.16 E13.92953
G1 X74.674 Y97.825 E13.95332
G1 X74.955 Y97.681 E13.96382
G1 X75.46 Y97.433 E13.98254
G1 X76.287 Y97.072 E14.01255
G1 X76.745 Y96.907 E14.02874
G1 X77.614 Y96.66 E14.05879
G1 X78.182 Y96.542 E14.07808
G1 X78.861 Y96.421 E14.10102
G1 X79.196 Y96.367 E14.11231
G1 X79.793 Y96.281 E14.13237
G1 X80.691 Y96.192 E14.16238
G1 X81.594 Y96.183 E14.19242
G1 X82.111 Y96.214 E14.20965
G1 X84.82 Y96.403 E14.29997
G1 X87.389 Y96.507 E14.38548
G1 X89.887 Y96.538 E14.46857
G1 X92.454 Y96.497 E14.55396
G1 X94.985 Y96.385 E14.63822
G1 X97.461 Y96.206 E14.72079
G1 X97.646 Y96.195 E14.72696
G1 X98.517 Y96.18 E14.75593
G1 X99.284 Y96.2 E14.78145
G1 X100.499 Y96.25 E14.82189
G1 X103.025 Y96.282 E14.90592
G1 X105.594 Y96.242 E14.99137
G1 X108.124 Y96.131 E15.0756
G1 X110.65 Y95.948 E15.15984
G1 X113.168 Y95.694 E15.24401
G1 X115.788 Y95.354 E15.33188
G1 X116.306 Y95.28 E15.34929
G1 X117.205 Y95.192 E15.37933
G1 X118.108 Y95.183 E15.40936
G1 X118.602 Y95.212 E15.42582
G1 X119.335 Y95.274 E15.45029
G1 X120.868 Y95.422 E15.50152
G1 X123.367 Y95.593 E15.58483
G1 X125.935 Y95.696 E15.67031
G1 X128.432 Y95.725 E15.75336
G1 X131.001 Y95.682 E15.83882
G1 X133.531 Y95.569 E15.92305
G1 X136.076 Y95.382 E16.00793
G1 X136.952 Y95.294 E16.03721
G1 X137.852 Y95.216 E16.06726
G1 X138.755 Y95.178 E16.09732
G1 X139.657 Y95.22 E16.12735
G1 X140.168 Y95.279 E16.14446
G1 X140.9 Y95.383 E16.16905
G1 X141.213 Y95.433 E16.17959
G1 X141.765 Y95.529 E16.19823
G1 X142.647 Y95.723 E16.22826
G1 X143.508 Y95.994 E16.25829
G1 X144.505 Y96.418 E16.29432
G1 X145.103 Y96.711 E16.31647
G1 X145.372 Y96.848 E16.32651
G1 X145.924 Y97.139 E16.34726
G1 X146.703 Y97.595 E16.37729
G1 X147.439 Y98.118 E16.40732
G1 X148.27 Y98.842 E16.44398
G1 X148.775 Y99.332 E16.46738
G1 X148.988 Y99.545 E16.4774
G1 X149.396 Y99.965 E16.49687
G1 X149.996 Y100.64 E16.52691
G1 X150.534 Y101.365 E16.55694
G1 X151.087 Y102.285 E16.59264
G1 X151.408 Y102.889 E16.61539
G1 X151.548 Y103.162 E16.62559
G1 X151.813 Y103.699 E16.64551
G1 X152.176 Y104.526 E16.67555
G1 X152.465 Y105.382 E16.7056
G1 X152.716 Y106.468 E16.74267
G1 X152.84 Y107.182 E16.76678
G1 X152.886 Y107.475 E16.77664
G1 X152.968 Y108.045 E16.79579
G1 X153.057 Y108.943 E16.82581
G1 X153.066 Y109.846 E16.85584
G1 X152.971 Y110.931 E16.89207
G1 X152.878 Y111.586 E16.91407
G1 X152.83 Y111.891 E16.92434
G1 X152.725 Y112.498 E16.94483
G1 X152.532 Y113.38 E16.97486
G1 X152.261 Y114.241 E17.00488
G1 X151.838 Y115.238 E17.0409
G1 X151.513 Y115.903 E17.06552
G1 X151.368 Y116.188 E17.07616
G1 X151.106 Y116.684 E17.09481
G1 X150.649 Y117.463 E17.12485
G1 X150.125 Y118.199 E17.1549
G1 X149.397 Y119.033 E17.19172
G1 X148.927 Y119.516 E17.21414
G1 X148.737 Y119.707 E17.2231
G1 X148.299 Y120.134 E17.24344
G1 X147.625 Y120.735 E17.27348
G1 X146.901 Y121.274 E17.3035
G1 X145.957 Y121.842 E17.34014
G1 X145.361 Y122.158 E17.36258
G1 X145.077 Y122.303 E17.37319
G1 X144.537 Y122.568 E17.39319
G1 X143.421 Y123.036 E17.43344
G1 X142.557 Y123.298 E17.46347
G1 X141.802 Y123.461 E17.48916
G1 X141.146 Y123.577 E17.51132
G1 X140.824 Y123.629 E17.52217
G1 X140.199 Y123.719 E17.54317
G1 X139.3 Y123.808 E17.57322
G1 X138.397 Y123.817 E17.60325
G1 X137.905 Y123.788 E17.61964
G1 X137.191 Y123.728 E17.64348
G1 X135.669 Y123.58 E17.69434
G1 X133.147 Y123.408 E17.77841
G1 X130.579 Y123.305 E17.86389
G1 X128.077 Y123.275 E17.94712
G1 X125.505 Y123.318 E18.03267
G1 X122.987 Y123.43 E18.11651
G1 X120.444 Y123.617 E18.20131
G1 X119.583 Y123.702 E18.23009
G1 X118.623 Y123.785 E18.26214
G1 X117.472 Y123.819 E18.30044
G1 X116.518 Y123.793 E18.33218
G1 X115.382 Y123.748 E18.36999
G1 X112.875 Y123.719 E18.45338
G1 X110.303 Y123.763 E18.53894
G1 X107.75 Y123.877 E18.62394
G1 X105.239 Y124.063 E18.70768
G1 X102.74 Y124.317 E18.79123
G1 X100.103 Y124.661 E18.87968
G1 X99.677 Y124.721 E18.89399
G1 X98.778 Y124.808 E18.92403
G1 X97.427 Y124.789 E18.96897
G1 X97.203 Y124.771 E18.97644
G1 X94.627 Y124.595 E19.06232
G1 X92.06 Y124.492 E19.14777
