;FLAVOR:Marlin
;TIME:1632
;Filament used: 0.843812m
;Layer height: 0.2
;MINX:58.981
;MINY:65.437
;MINZ:0.2
;MAXX:161.006
;MAXY:154.563
;MAXZ:3.4
;Generated with Cura_SteamEngine 4.8.0
M140 S50
M105
M190 S50
M104 S210
M105
M109 S210
M82 ;absolute extrusion mode
M201 X500.00 Y500.00 Z100.00 E5000.00 ;Setup machine max acceleration
M203 X500.00 Y500.00 Z10.00 E50.00 ;Setup machine max feedrate
M204 P500.00 R1000.00 T500.00 ;Setup Print/Retract/Travel acceleration
M205 X8.00 Y8.00 Z0.40 E5.00 ;Setup Jerk
M220 S100 ;Reset Feedrate
M221 S100 ;Reset Flowrate

G28 ;Home

G92 E0 ;Reset Extruder
G1 Z2.0 F3000 ;Move Z Axis up
G1 X10.1 Y20 Z0.28 F5000.0 ;Move to start position
G1 X10.1 Y200.0 Z0.28 F1500.0 E15 ;Draw the first line
G1 X10.4 Y200.0 Z0.28 F5000.0 ;Move to side a little
G1 X10.4 Y20 Z0.28 F1500.0 E30 ;Draw the second line
G92 E0 ;Reset Extruder
G1 Z2.0 F3000 ;Move Z Axis up

G92 E0
G92 E0
G1 F2700 E-5
;LAYER_COUNT:17
;LAYER:0
M107
G0 F6000 X116.907 Y70.651 Z0.2
;TYPE:SKIRT
G1 F2700 E0
G1 F1200 X117.434 Y69.876 E0.03117
G1 X118.026 Y69.148 E0.06238
G1 X118.678 Y68.474 E0.09357
G1 X119.385 Y67.857 E0.12478
G1 X120.141 Y67.303 E0.15595
G1 X120.942 Y66.816 E0.18713
G1 X121.782 Y66.398 E0.21834
G1 X122.654 Y66.053 E0.24953
G1 X123.553 Y65.784 E0.28074
G1 X124.471 Y65.593 E0.31193
G1 X125.402 Y65.48 E0.34312
G1 X125.913 Y65.452 E0.36014
G1 X126.234 Y65.442 E0.37082
G1 X126.577 Y65.437 E0.38223
G1 X138.663 Y65.437 E0.78421
G1 X139.521 Y65.448 E0.81275
G1 X140.457 Y65.501 E0.84393
G1 X141.386 Y65.634 E0.87515
G1 X142.299 Y65.846 E0.90632
G1 X143.192 Y66.134 E0.93753
G1 X144.056 Y66.498 E0.96871
G1 X144.887 Y66.934 E0.99993
G1 X145.58 Y67.372 E1.02719
G1 X145.726 Y67.472 E1.03308
G1 X146.004 Y67.669 E1.04441
G1 X146.39 Y67.952 E1.06033
G1 X148.424 Y69.477 E1.14488
G1 X149.007 Y69.928 E1.1694
G1 X149.723 Y70.533 E1.20058
G1 X150.386 Y71.197 E1.23179
G1 X150.989 Y71.915 E1.26297
G1 X151.53 Y72.682 E1.29419
G1 X152.003 Y73.492 E1.32539
G1 X152.405 Y74.339 E1.35657
G1 X152.734 Y75.217 E1.38776
G1 X152.986 Y76.12 E1.41894
G1 X153.161 Y77.042 E1.45015
G1 X153.268 Y78.213 E1.48926
G1 X153.28 Y78.64 E1.50347
G1 X153.286 Y79.215 E1.52259
G1 X153.285 Y93.385 E1.99389
G1 X153.269 Y94.439 E2.02895
G1 X153.205 Y96.735 E2.10535
G1 X153.205 Y99.279 E2.18996
G1 X153.253 Y101.17 E2.25287
G1 X153.273 Y101.732 E2.27158
G1 X153.279 Y101.99 E2.28016
G1 X153.286 Y102.618 E2.30105
G1 X153.286 Y104.912 E2.37735
G1 X153.323 Y107.52 E2.4641
G1 X153.43 Y110.035 E2.54783
G1 X153.607 Y112.535 E2.63118
G1 X153.855 Y115.035 E2.71474
G1 X154.174 Y117.528 E2.79834
G1 X154.565 Y120.021 E2.88227
G1 X155.028 Y122.511 E2.9665
G1 X155.558 Y124.975 E3.05033
G1 X156.147 Y127.377 E3.13259
G1 X156.823 Y129.833 E3.21731
G1 X157.561 Y132.243 E3.30114
G1 X158.359 Y134.611 E3.38426
G1 X159.238 Y136.991 E3.46864
G1 X159.776 Y138.319 E3.5163
G1 X160.247 Y139.515 E3.55905
G1 X160.553 Y140.402 E3.59026
G1 X160.783 Y141.311 E3.62145
G1 X160.934 Y142.237 E3.65265
G1 X161.006 Y143.172 E3.68384
G1 X160.998 Y144.11 E3.71504
G1 X160.91 Y145.043 E3.74621
G1 X160.742 Y145.966 E3.77741
G1 X160.497 Y146.872 E3.80863
G1 X160.176 Y147.753 E3.83982
G1 X159.781 Y148.603 E3.87099
G1 X159.314 Y149.417 E3.9022
G1 X158.78 Y150.188 E3.9334
G1 X158.183 Y150.911 E3.96458
G1 X157.526 Y151.58 E3.99577
G1 X156.814 Y152.191 E4.02697
G1 X156.053 Y152.739 E4.05817
G1 X155.248 Y153.22 E4.08936
G1 X154.405 Y153.631 E4.12055
G1 X153.53 Y153.968 E4.15174
G1 X152.629 Y154.23 E4.18294
G1 X151.709 Y154.414 E4.21415
G1 X150.778 Y154.519 E4.24531
G1 X150.219 Y154.544 E4.26392
G1 X149.314 Y154.561 E4.29403
G1 X149.107 Y154.563 E4.30091
G1 X119.952 Y154.562 E5.27061
G1 X119.254 Y154.552 E5.29383
G1 X118.64 Y154.526 E5.31427
G1 X117.965 Y154.477 E5.33678
G1 X116.314 Y154.336 E5.39189
G1 X113.788 Y154.192 E5.47604
G1 X111.303 Y154.121 E5.55873
G1 X108.778 Y154.121 E5.64271
G1 X106.253 Y154.192 E5.72673
G1 X103.769 Y154.331 E5.80947
G1 X102.931 Y154.407 E5.83746
G1 X102.653 Y154.42 E5.84672
G1 X101.511 Y154.51 E5.88482
G1 X100.848 Y154.542 E5.90689
G1 X99.607 Y154.563 E5.94818
G1 X70.519 Y154.562 E6.91565
G1 X69.821 Y154.552 E6.93886
G1 X68.885 Y154.498 E6.97005
G1 X67.957 Y154.366 E7.00122
G1 X67.043 Y154.154 E7.03243
G1 X66.151 Y153.865 E7.06362
G1 X65.286 Y153.502 E7.09482
G1 X64.456 Y153.066 E7.126
G1 X63.665 Y152.561 E7.15721
G1 X62.921 Y151.99 E7.18841
G1 X62.228 Y151.358 E7.2196
G1 X61.591 Y150.67 E7.25079
G1 X61.016 Y149.929 E7.28198
G1 X60.505 Y149.143 E7.31316
G1 X60.063 Y148.315 E7.34438
G1 X59.694 Y147.453 E7.37557
G1 X59.399 Y146.563 E7.40675
G1 X59.181 Y145.651 E7.43794
G1 X59.041 Y144.723 E7.46916
G1 X58.981 Y143.787 E7.50035
G1 X59.002 Y142.85 E7.53152
G1 X59.101 Y141.917 E7.56273
G1 X59.28 Y140.997 E7.5939
G1 X59.537 Y140.094 E7.62513
G1 X59.869 Y139.218 E7.65629
G1 X60.275 Y138.372 E7.6875
G1 X60.928 Y137.301 E7.72922
G1 X61.062 Y137.107 E7.73706
G1 X61.628 Y136.359 E7.76826
G1 X62.258 Y135.658 E7.79961
G1 X62.585 Y135.325 E7.81513
G1 X68.93 Y128.979 E8.1136
G1 X69.554 Y128.374 E8.14251
G1 X70.255 Y127.751 E8.1737
G1 X71.007 Y127.19 E8.20491
G1 X72 Y126.588 E8.24353
G1 X74.419 Y125.259 E8.33533
G1 X76.544 Y124.01 E8.41731
G1 X78.709 Y122.655 E8.50226
G1 X80.789 Y121.27 E8.58537
G1 X82.862 Y119.802 E8.66986
G1 X84.855 Y118.306 E8.75274
G1 X86.819 Y116.742 E8.83625
G1 X88.774 Y115.093 E8.92131
G1 X90.621 Y113.443 E9.00369
G1 X92.466 Y111.699 E9.08813
G1 X94.237 Y109.927 E9.17146
G1 X95.968 Y108.095 E9.25529
G1 X97.644 Y106.216 E9.33903
G1 X99.277 Y104.279 E9.4233
G1 X100.825 Y102.334 E9.50597
G1 X102.347 Y100.306 E9.59031
G1 X103.804 Y98.245 E9.67426
G1 X105.188 Y96.166 E9.75733
G1 X106.524 Y94.028 E9.84118
G1 X107.815 Y91.828 E9.92602
G1 X109.006 Y89.66 E10.00829
G1 X110.16 Y87.412 E10.09234
G1 X111.251 Y85.129 E10.17649
G1 X112.273 Y82.824 E10.26036
G1 X113.224 Y80.504 E10.34375
G1 X114.111 Y78.154 E10.42729
G1 X114.937 Y75.766 E10.51134
G1 X115.526 Y73.913 E10.57601
G1 X115.744 Y73.206 E10.60061
G1 X116.059 Y72.322 E10.63183
G1 X116.447 Y71.469 E10.66299
G1 X116.907 Y70.651 E10.69421
G0 F6000 X117.274 Y70.819
G1 F1200 X117.796 Y70.061 E10.72482
G1 X118.382 Y69.351 E10.75544
G1 X119.027 Y68.694 E10.78606
G1 X119.727 Y68.096 E10.81668
G1 X120.476 Y67.561 E10.8473
G1 X121.269 Y67.093 E10.87792
G1 X122.1 Y66.696 E10.90855
G1 X122.962 Y66.372 E10.93918
G1 X123.848 Y66.124 E10.96978
G1 X124.753 Y65.954 E11.00041
G1 X125.926 Y65.852 E11.03957
G1 X126.247 Y65.842 E11.05025
G1 X126.577 Y65.837 E11.06123
G1 X138.663 Y65.837 E11.46321
G1 X139.515 Y65.848 E11.49155
G1 X140.434 Y65.901 E11.52217
G1 X141.345 Y66.034 E11.55279
G1 X142.241 Y66.245 E11.58341
G1 X143.116 Y66.533 E11.61404
G1 X143.962 Y66.896 E11.64466
G1 X144.773 Y67.331 E11.67527
G1 X145.354 Y67.702 E11.6982
G1 X145.5 Y67.802 E11.70409
G1 X145.768 Y67.991 E11.71499
G1 X146.15 Y68.272 E11.73077
G1 X148.179 Y69.794 E11.81513
G1 X148.762 Y70.245 E11.83964
G1 X149.465 Y70.839 E11.87025
G1 X150.114 Y71.492 E11.90088
G1 X150.703 Y72.199 E11.93148
G1 X151.23 Y72.955 E11.96213
G1 X151.688 Y73.753 E11.99273
G1 X152.076 Y74.588 E12.02336
G1 X152.389 Y75.454 E12.05399
G1 X152.627 Y76.343 E12.0846
G1 X152.786 Y77.25 E12.11522
G1 X152.868 Y78.228 E12.14786
G1 X152.88 Y78.644 E12.16171
G1 X152.886 Y79.215 E12.1807
G1 X152.885 Y93.379 E12.6518
G1 X152.869 Y94.428 E12.68669
G1 X152.805 Y96.724 E12.76308
G1 X152.805 Y99.25 E12.8471
G1 X152.857 Y101.291 E12.91501
G1 X152.873 Y101.746 E12.93015
G1 X152.879 Y101.995 E12.93843
G1 X152.886 Y102.618 E12.95915
G1 X152.886 Y104.918 E13.03565
G1 X152.923 Y107.543 E13.12297
G1 X153.03 Y110.05 E13.20643
G1 X153.208 Y112.57 E13.29045
G1 X153.457 Y115.085 E13.37451
G1 X153.776 Y117.574 E13.45797
G1 X154.177 Y120.126 E13.54389
G1 X154.629 Y122.557 E13.62614
G1 X155.165 Y125.049 E13.71092
G1 X155.766 Y127.502 E13.79492
G1 X156.44 Y129.951 E13.8794
G1 X157.175 Y132.351 E13.96288
G1 X157.992 Y134.772 E14.04787
G1 X158.861 Y137.127 E14.13136
G1 X159.404 Y138.466 E14.17941
G1 X159.875 Y139.662 E14.22217
G1 X160.175 Y140.532 E14.25278
G1 X160.398 Y141.426 E14.28342
G1 X160.543 Y142.335 E14.31404
G1 X160.608 Y143.253 E14.34465
G1 X160.593 Y144.174 E14.37528
G1 X160.499 Y145.089 E14.40588
G1 X160.326 Y145.994 E14.43652
G1 X160.074 Y146.879 E14.46713
G1 X159.747 Y147.74 E14.49776
G1 X159.346 Y148.569 E14.52839
G1 X158.875 Y149.36 E14.55901
G1 X158.338 Y150.107 E14.58961
G1 X157.737 Y150.805 E14.62024
G1 X157.078 Y151.448 E14.65087
G1 X156.366 Y152.031 E14.68147
G1 X155.605 Y152.55 E14.71211
G1 X154.803 Y153.002 E14.74273
G1 X153.964 Y153.382 E14.77336
G1 X153.096 Y153.687 E14.80396
G1 X152.204 Y153.917 E14.8346
G1 X151.296 Y154.068 E14.86522
G1 X150.211 Y154.144 E14.90139
G1 X149.306 Y154.161 E14.9315
G1 X149.107 Y154.163 E14.93812
G1 X119.958 Y154.162 E15.90762
G1 X119.26 Y154.152 E15.93083
G1 X118.669 Y154.127 E15.95051
G1 X117.999 Y154.079 E15.97285
G1 X116.335 Y153.937 E16.0284
G1 X113.823 Y153.794 E16.11208
G1 X111.279 Y153.721 E16.19673
G1 X108.767 Y153.721 E16.28028
G1 X106.22 Y153.792 E16.36503
G1 X103.739 Y153.932 E16.44768
G1 X102.895 Y154.008 E16.47586
G1 X102.628 Y154.02 E16.48475
G1 X101.479 Y154.111 E16.52309
G1 X100.841 Y154.142 E16.54433
G1 X99.607 Y154.163 E16.58538
G1 X70.525 Y154.162 E17.55265
G1 X69.827 Y154.152 E17.57587
G1 X68.908 Y154.099 E17.60649
G1 X67.997 Y153.966 E17.63711
G1 X67.101 Y153.755 E17.66772
G1 X66.227 Y153.467 E17.69833
G1 X65.38 Y153.104 E17.72898
G1 X64.569 Y152.669 E17.75959
G1 X63.799 Y152.165 E17.7902
G1 X63.075 Y151.596 E17.82082
G1 X62.403 Y150.966 E17.85146
G1 X61.788 Y150.281 E17.88208
G1 X61.235 Y149.545 E17.9127
G1 X60.748 Y148.764 E17.94331
G1 X60.331 Y147.943 E17.97394
G1 X59.986 Y147.089 E18.00457
G1 X59.717 Y146.209 E18.03518
G1 X59.525 Y145.308 E18.06582
G1 X59.412 Y144.395 E18.09642
G1 X59.379 Y143.475 E18.12704
G1 X59.426 Y142.555 E18.15768
G1 X59.552 Y141.643 E18.1883
G1 X59.757 Y140.746 E18.2189
G1 X60.04 Y139.869 E18.24955
G1 X60.397 Y139.021 E18.28015
G1 X60.826 Y138.206 E18.31079
G1 X61.257 Y137.529 E18.33748
G1 X61.391 Y137.335 E18.34532
G1 X61.947 Y136.601 E18.37595
G1 X62.544 Y135.938 E18.40562
G1 X62.868 Y135.608 E18.421
G1 X69.338 Y129.139 E18.72531
G1 X69.832 Y128.661 E18.74817
G1 X70.521 Y128.05 E18.7788
G1 X71.26 Y127.502 E18.8094
G1 X72.189 Y126.94 E18.84551
G1 X74.582 Y125.626 E18.93631
G1 X76.764 Y124.344 E19.02049
G1 X78.917 Y122.997 E19.10496
G1 X81.036 Y121.586 E19.18963
G1 X83.065 Y120.15 E19.27231
G1 X85.099 Y118.622 E19.35692
G1 X87.101 Y117.027 E19.44205
G1 X89.015 Y115.413 E19.52533
G1 X90.898 Y113.731 E19.6093
G1 X92.758 Y111.973 E19.69443
G1 X94.511 Y110.219 E19.77691
G1 X96.257 Y108.372 E19.86144
G1 X97.965 Y106.457 E19.94679
G1 X99.58 Y104.54 E20.03016
G1 X101.142 Y102.578 E20.11357
G1 X102.66 Y100.555 E20.19769
G1 X104.136 Y98.467 E20.28274
G1 X105.527 Y96.378 E20.36621
G1 X106.866 Y94.236 E20.45023
G1 X108.152 Y92.043 E20.53479
G1 X109.369 Y89.828 E20.61884
G1 X110.526 Y87.574 E20.70311
G1 X111.613 Y85.298 E20.787
G1 X112.637 Y82.989 E20.87101
G1 X113.592 Y80.661 E20.95471
G1 X114.492 Y78.278 E21.03943
G1 X115.313 Y75.903 E21.12301
G1 X115.928 Y73.968 E21.19054
G1 X116.127 Y73.324 E21.21296
G1 X116.436 Y72.457 E21.24357
G1 X116.819 Y71.62 E21.27419
G1 X117.274 Y70.819 E21.30483
G0 F6000 X117.64 Y70.988
G1 F1200 X118.157 Y70.247 E21.33488
G1 X118.737 Y69.555 E21.36491
G1 X119.376 Y68.917 E21.39494
G1 X120.069 Y68.338 E21.42498
G1 X120.811 Y67.822 E21.45504
G1 X121.595 Y67.374 E21.48507
G1 X122.416 Y66.998 E21.5151
G1 X123.266 Y66.695 E21.54512
G1 X124.141 Y66.469 E21.57517
G1 X125.032 Y66.321 E21.60522
G1 X125.938 Y66.252 E21.63544
G1 X126.259 Y66.242 E21.64612
G1 X126.577 Y66.237 E21.6567
G1 X138.808 Y66.238 E22.0635
G1 X139.509 Y66.248 E22.08682
G1 X140.411 Y66.301 E22.11687
G1 X141.304 Y66.433 E22.1469
G1 X142.183 Y66.644 E22.17696
G1 X143.039 Y66.932 E22.207
G1 X143.866 Y67.294 E22.23703
G1 X144.658 Y67.728 E22.26706
G1 X145.128 Y68.032 E22.28568
G1 X145.274 Y68.132 E22.29157
G1 X145.532 Y68.314 E22.30207
G1 X145.91 Y68.592 E22.31767
G1 X147.934 Y70.11 E22.40182
G1 X148.517 Y70.561 E22.42634
G1 X149.206 Y71.145 E22.45638
G1 X149.841 Y71.787 E22.48641
G1 X150.417 Y72.483 E22.51646
G1 X150.928 Y73.227 E22.54648
G1 X151.372 Y74.014 E22.57653
G1 X151.745 Y74.837 E22.60659
G1 X152.043 Y75.689 E22.63661
G1 X152.265 Y76.564 E22.66663
G1 X152.408 Y77.456 E22.69668
G1 X152.469 Y78.243 E22.72293
G1 X152.474 Y78.375 E22.72733
G1 X152.48 Y78.649 E22.73644
G1 X152.486 Y79.215 E22.75527
G1 X152.485 Y93.373 E23.22617
G1 X152.469 Y94.417 E23.26089
G1 X152.405 Y96.713 E23.33729
G1 X152.405 Y99.26 E23.422
G1 X152.454 Y101.198 E23.48648
G1 X152.474 Y101.76 E23.50519
G1 X152.479 Y101.999 E23.51314
G1 X152.486 Y102.618 E23.53373
G1 X152.486 Y104.91 E23.60996
G1 X152.523 Y107.53 E23.69711
G1 X152.632 Y110.094 E23.78246
G1 X152.81 Y112.601 E23.86606
G1 X153.061 Y115.142 E23.95098
G1 X153.382 Y117.65 E24.03508
G1 X153.776 Y120.155 E24.11942
G1 X154.238 Y122.642 E24.20355
G1 X154.779 Y125.156 E24.28908
G1 X155.378 Y127.602 E24.37284
G1 X156.051 Y130.046 E24.45716
G1 X156.796 Y132.481 E24.54185
G1 X157.609 Y134.891 E24.62645
G1 X158.484 Y137.261 E24.71047
G1 X159.032 Y138.612 E24.75896
G1 X159.503 Y139.808 E24.80172
G1 X159.796 Y140.663 E24.83178
G1 X160.013 Y141.539 E24.86179
G1 X160.151 Y142.432 E24.89185
G1 X160.21 Y143.333 E24.92188
G1 X160.189 Y144.236 E24.95192
G1 X160.088 Y145.133 E24.98194
G1 X159.908 Y146.018 E25.01198
G1 X159.65 Y146.884 E25.04204
G1 X159.317 Y147.723 E25.07206
G1 X158.911 Y148.53 E25.1021
G1 X158.436 Y149.298 E25.13214
G1 X157.894 Y150.02 E25.16217
G1 X157.29 Y150.692 E25.19222
G1 X156.63 Y151.308 E25.22225
G1 X155.917 Y151.863 E25.2523
G1 X155.158 Y152.353 E25.28235
G1 X154.359 Y152.773 E25.31237
G1 X153.526 Y153.122 E25.34241
G1 X152.665 Y153.395 E25.37245
G1 X151.784 Y153.591 E25.40247
G1 X150.888 Y153.708 E25.43252
G1 X150.204 Y153.744 E25.4553
G1 X149.107 Y153.763 E25.4918
G1 X119.964 Y153.762 E26.4611
G1 X119.266 Y153.752 E26.48431
G1 X118.697 Y153.728 E26.50326
G1 X118.033 Y153.68 E26.5254
G1 X116.358 Y153.537 E26.58131
G1 X113.855 Y153.394 E26.6647
G1 X111.291 Y153.321 E26.75001
G1 X108.756 Y153.321 E26.83433
G1 X106.221 Y153.392 E26.91867
G1 X103.711 Y153.533 E27.00229
G1 X102.859 Y153.61 E27.03074
G1 X102.615 Y153.621 E27.03886
G1 X101.448 Y153.713 E27.0778
G1 X100.833 Y153.742 E27.09828
G1 X99.607 Y153.763 E27.13906
G1 X70.531 Y153.762 E28.10613
G1 X69.833 Y153.752 E28.12935
G1 X68.931 Y153.699 E28.1594
G1 X68.038 Y153.567 E28.18943
G1 X67.16 Y153.356 E28.21946
G1 X66.304 Y153.068 E28.2495
G1 X65.477 Y152.706 E28.27952
G1 X64.685 Y152.271 E28.30958
G1 X63.934 Y151.769 E28.33962
G1 X63.231 Y151.202 E28.36966
G1 X62.581 Y150.575 E28.3997
G1 X61.989 Y149.893 E28.42974
G1 X61.459 Y149.162 E28.45977
G1 X60.997 Y148.386 E28.48981
G1 X60.604 Y147.573 E28.51984
G1 X60.286 Y146.728 E28.54987
G1 X60.043 Y145.858 E28.57991
G1 X59.878 Y144.97 E28.60995
G1 X59.792 Y144.071 E28.63999
G1 X59.786 Y143.168 E28.67003
G1 X59.86 Y142.268 E28.70006
G1 X60.014 Y141.378 E28.7301
G1 X60.245 Y140.505 E28.76014
G1 X60.553 Y139.656 E28.79018
G1 X60.935 Y138.837 E28.82023
G1 X61.586 Y137.756 E28.8622
G1 X61.72 Y137.562 E28.87005
G1 X62.266 Y136.842 E28.9001
G1 X62.83 Y136.218 E28.92808
G1 X63.151 Y135.891 E28.94332
G1 X69.616 Y129.427 E29.24739
G1 X70.11 Y128.949 E29.27025
G1 X70.786 Y128.35 E29.30029
G1 X71.513 Y127.814 E29.33033
G1 X72.378 Y127.292 E29.36394
G1 X74.797 Y125.964 E29.45572
G1 X76.973 Y124.685 E29.53967
G1 X79.145 Y123.325 E29.6249
G1 X81.243 Y121.929 E29.70872
G1 X83.313 Y120.463 E29.79308
G1 X85.36 Y118.926 E29.87822
G1 X87.346 Y117.345 E29.96265
G1 X89.273 Y115.719 E30.04651
G1 X91.176 Y114.019 E30.13138
G1 X93.015 Y112.281 E30.21554
G1 X94.819 Y110.476 E30.30042
G1 X96.563 Y108.631 E30.38486
G1 X98.253 Y106.736 E30.46931
G1 X99.883 Y104.802 E30.55344
G1 X101.472 Y102.805 E30.63832
G1 X102.979 Y100.797 E30.72182
G1 X104.463 Y98.698 E30.80732
G1 X105.856 Y96.606 E30.89092
G1 X107.224 Y94.417 E30.97677
G1 X108.505 Y92.233 E31.06098
G1 X109.718 Y90.024 E31.1448
G1 X110.878 Y87.764 E31.2293
