;FLAVOR:Marlin
;TIME:1725
;Filament used: 0.834794m
;Layer height: 0.2
;MINX:63.111
;MINY:88.159
;MINZ:0.2
;MAXX:156.889
;MAXY:131.841
;MAXZ:3.8
;Generated with Cura_SteamEngine 4.8.0
M140 S50
M105
M190 S50
M104 S210
M105
M109 S210
M82 ;absolute extrusion mode
M201 X500.00 Y500.00 Z100.00 E5000.00 ;Setup machine max acceleration
M203 X500.00 Y500.00 Z10.00 E50.00 ;Setup machine max feedrate
M204 P500.00 R1000.00 T500.00 ;Setup Print/Retract/Travel acceleration
M205 X8.00 Y8.00 Z0.40 E5.00 ;Setup Jerk
M220 S100 ;Reset Feedrate
M221 S100 ;Reset Flowrate

G28 ;Home

G92 E0 ;Reset Extruder
G1 Z2.0 F3000 ;Move Z Axis up
G1 X10.1 Y20 Z0.28 F5000.0 ;Move to start position
G1 X10.1 Y200.0 Z0.28 F1500.0 E15 ;Draw the first line
G1 X10.4 Y200.0 Z0.28 F5000.0 ;Move to side a little
G1 X10.4 Y20 Z0.28 F1500.0 E30 ;Draw the second line
G92 E0 ;Reset Extruder
G1 Z2.0 F3000 ;Move Z Axis up

G92 E0
G92 E0
G1 F2700 E-5
;LAYER_COUNT:19
;LAYER:0
M107
G0 F6000 X67.746 Y90.203 Z0.2
;TYPE:SKIRT
G1 F2700 E0
G1 F1200 X68.533 Y89.693 E0.03119
G1 X69.361 Y89.251 E0.06241
G1 X70.223 Y88.882 E0.0936
G1 X71.113 Y88.587 E0.12478
G1 X72.025 Y88.369 E0.15597
G1 X72.953 Y88.23 E0.18718
G1 X73.812 Y88.172 E0.21581
G1 X74.132 Y88.163 E0.22646
G1 X74.441 Y88.159 E0.23674
G1 X86.527 Y88.159 E0.63872
G1 X87.386 Y88.17 E0.66729
G1 X88.322 Y88.223 E0.69848
G1 X89.533 Y88.413 E0.73925
G1 X90.213 Y88.559 E0.76238
G1 X92.726 Y89.062 E0.84762
G1 X95.206 Y89.487 E0.93131
G1 X97.695 Y89.841 E1.01492
G1 X100.199 Y90.126 E1.09875
G1 X102.741 Y90.341 E1.18359
G1 X105.202 Y90.481 E1.26558
G1 X107.752 Y90.552 E1.35043
G1 X110.277 Y90.552 E1.43441
G1 X112.772 Y90.48 E1.51743
G1 X115.289 Y90.338 E1.60128
G1 X117.778 Y90.126 E1.68436
G1 X120.319 Y89.837 E1.76942
G1 X122.767 Y89.488 E1.85166
G1 X125.331 Y89.048 E1.93819
G1 X126.603 Y88.802 E1.98128
G1 X127.686 Y88.584 E2.01802
G1 X128.612 Y88.438 E2.0492
G1 X129.551 Y88.371 E2.08051
G1 X129.871 Y88.362 E2.09116
G1 X130.18 Y88.358 E2.10144
G1 X142.423 Y88.359 E2.50864
G1 X143.124 Y88.369 E2.53196
G1 X144.06 Y88.422 E2.56314
G1 X144.989 Y88.555 E2.59435
G1 X145.902 Y88.767 E2.62553
G1 X146.795 Y89.055 E2.65674
G1 X147.659 Y89.419 E2.68792
G1 X148.49 Y89.855 E2.71913
G1 X149.183 Y90.293 E2.7464
G1 X149.329 Y90.393 E2.75229
G1 X149.61 Y90.591 E2.76372
G1 X149.985 Y90.867 E2.77921
G1 X152.027 Y92.398 E2.86409
G1 X152.61 Y92.849 E2.88861
G1 X153.326 Y93.454 E2.91978
G1 X153.989 Y94.118 E2.95099
G1 X154.592 Y94.836 E2.98218
G1 X155.133 Y95.603 E3.0134
G1 X155.606 Y96.413 E3.04459
G1 X156.008 Y97.26 E3.07578
G1 X156.337 Y98.138 E3.10696
G1 X156.589 Y99.041 E3.13814
G1 X156.764 Y99.963 E3.16936
G1 X156.871 Y101.134 E3.20847
G1 X156.883 Y101.562 E3.22271
G1 X156.889 Y102.139 E3.2419
G1 X156.888 Y116.305 E3.71306
G1 X156.878 Y117.006 E3.73638
G1 X156.825 Y117.942 E3.76756
G1 X156.692 Y118.871 E3.79878
G1 X156.48 Y119.784 E3.82995
G1 X156.192 Y120.677 E3.86116
G1 X155.828 Y121.541 E3.89234
G1 X155.392 Y122.372 E3.92355
G1 X154.887 Y123.162 E3.95474
G1 X154.317 Y123.906 E3.98591
G1 X153.685 Y124.599 E4.01711
G1 X152.779 Y125.416 E4.05768
G1 X152.437 Y125.688 E4.07222
G1 X152.084 Y125.958 E4.087
G1 X150.001 Y127.519 E4.17358
G1 X149.423 Y127.938 E4.19732
G1 X148.641 Y128.456 E4.22852
G1 X147.818 Y128.905 E4.2597
G1 X146.959 Y129.282 E4.2909
G1 X146.071 Y129.585 E4.32211
G1 X145.161 Y129.811 E4.35329
G1 X144.235 Y129.959 E4.38448
G1 X143.363 Y130.025 E4.41357
G1 X142.577 Y130.053 E4.43973
G1 X140.011 Y130.181 E4.52518
G1 X137.522 Y130.377 E4.60822
G1 X134.985 Y130.647 E4.69308
G1 X132.519 Y130.981 E4.77585
G1 X129.994 Y131.397 E4.86096
G1 X128.705 Y131.637 E4.90457
G1 X127.777 Y131.769 E4.93575
G1 X126.896 Y131.821 E4.9651
G1 X125.933 Y131.839 E4.99713
G1 X125.727 Y131.841 E5.00399
G1 X96.64 Y131.84 E5.97142
G1 X95.941 Y131.83 E5.99467
G1 X95.004 Y131.776 E6.02589
G1 X94.089 Y131.646 E6.05663
G1 X92.697 Y131.386 E6.10373
G1 X92.443 Y131.335 E6.11235
G1 X89.973 Y130.913 E6.19569
G1 X87.464 Y130.557 E6.27997
G1 X84.987 Y130.277 E6.36288
G1 X82.457 Y130.062 E6.44733
G1 X79.983 Y129.923 E6.52975
G1 X76.071 Y129.841 E6.65989
G1 X74.66 Y129.84 E6.70682
G1 X73.962 Y129.83 E6.73004
G1 X73.026 Y129.776 E6.76122
G1 X72.098 Y129.644 E6.7924
G1 X71.184 Y129.432 E6.82361
G1 X70.292 Y129.143 E6.85479
G1 X69.427 Y128.78 E6.88599
G1 X68.597 Y128.344 E6.91718
G1 X67.806 Y127.839 E6.94839
G1 X67.062 Y127.268 E6.97958
G1 X66.369 Y126.636 E7.01078
G1 X65.732 Y125.948 E7.04196
G1 X65.157 Y125.207 E7.07316
G1 X64.646 Y124.421 E7.10434
G1 X64.204 Y123.593 E7.13556
G1 X63.835 Y122.731 E7.16674
G1 X63.54 Y121.841 E7.19793
G1 X63.322 Y120.929 E7.22912
G1 X63.182 Y120.001 E7.26033
G1 X63.124 Y119.129 E7.2894
G1 X63.115 Y118.797 E7.30045
G1 X63.111 Y118.499 E7.31036
G1 X63.112 Y99.697 E7.93572
G1 X63.122 Y99.008 E7.95863
G1 X63.176 Y98.072 E7.98982
G1 X63.309 Y97.144 E8.021
G1 X63.521 Y96.23 E8.0522
G1 X63.809 Y95.338 E8.08338
G1 X64.173 Y94.473 E8.11459
G1 X64.609 Y93.643 E8.14578
G1 X65.114 Y92.853 E8.17696
G1 X65.685 Y92.109 E8.20816
G1 X66.317 Y91.416 E8.23935
G1 X67.006 Y90.779 E8.27056
G1 X67.746 Y90.203 E8.30175
G0 F6000 X68.131 Y90.423
G1 F1200 X68.912 Y89.936 E8.33236
G1 X69.733 Y89.519 E8.36299
G1 X70.587 Y89.175 E8.39361
G1 X71.467 Y88.906 E8.42422
G1 X72.368 Y88.714 E8.45486
G1 X73.281 Y88.601 E8.48546
G1 X73.823 Y88.572 E8.50351
G1 X74.143 Y88.563 E8.51416
G1 X74.441 Y88.559 E8.52407
G1 X86.527 Y88.559 E8.92605
G1 X87.38 Y88.57 E8.95442
G1 X88.299 Y88.623 E8.98504
G1 X89.449 Y88.804 E9.02376
G1 X90.129 Y88.95 E9.04689
G1 X92.651 Y89.455 E9.13244
G1 X95.148 Y89.883 E9.2167
G1 X97.665 Y90.241 E9.30126
G1 X100.157 Y90.524 E9.38468
G1 X102.683 Y90.738 E9.46899
G1 X105.204 Y90.881 E9.55298
G1 X107.741 Y90.952 E9.63739
G1 X110.253 Y90.952 E9.72094
G1 X112.805 Y90.879 E9.80585
G1 X115.308 Y90.737 E9.88924
G1 X117.859 Y90.52 E9.97439
G1 X120.354 Y90.237 E10.05791
G1 X122.82 Y89.884 E10.14076
G1 X125.378 Y89.446 E10.22708
G1 X126.743 Y89.182 E10.27332
G1 X127.765 Y88.976 E10.308
G1 X128.674 Y88.834 E10.3386
G1 X129.562 Y88.771 E10.36821
G1 X129.882 Y88.762 E10.37885
G1 X130.18 Y88.758 E10.38877
G1 X142.417 Y88.759 E10.79577
G1 X143.118 Y88.769 E10.81909
G1 X144.037 Y88.822 E10.84971
G1 X144.948 Y88.955 E10.88033
G1 X145.844 Y89.166 E10.91094
G1 X146.719 Y89.454 E10.94158
G1 X147.565 Y89.817 E10.9722
G1 X148.376 Y90.252 E11.00281
G1 X148.957 Y90.623 E11.02574
G1 X149.103 Y90.723 E11.03162
G1 X149.373 Y90.914 E11.04262
G1 X149.745 Y91.187 E11.05797
G1 X151.782 Y92.715 E11.14266
G1 X152.365 Y93.166 E11.16718
G1 X153.068 Y93.76 E11.19779
G1 X153.717 Y94.413 E11.22841
G1 X154.306 Y95.12 E11.25902
G1 X154.833 Y95.876 E11.28967
G1 X155.291 Y96.674 E11.32027
G1 X155.679 Y97.509 E11.3509
G1 X155.992 Y98.375 E11.38152
G1 X156.23 Y99.264 E11.41213
G1 X156.389 Y100.171 E11.44276
G1 X156.471 Y101.149 E11.4754
G1 X156.483 Y101.566 E11.48928
G1 X156.489 Y102.139 E11.50834
G1 X156.488 Y116.299 E11.9793
G1 X156.478 Y117 E12.00262
G1 X156.425 Y117.919 E12.03323
G1 X156.292 Y118.83 E12.06386
G1 X156.081 Y119.726 E12.09447
G1 X155.793 Y120.601 E12.12511
G1 X155.43 Y121.447 E12.15573
G1 X154.995 Y122.258 E12.18634
G1 X154.491 Y123.029 E12.21697
G1 X153.922 Y123.753 E12.2476
G1 X153.293 Y124.425 E12.27822
G1 X152.528 Y125.105 E12.31226
G1 X152.193 Y125.371 E12.32649
G1 X151.844 Y125.638 E12.3411
G1 X149.906 Y127.092 E12.42168
G1 X149.188 Y127.614 E12.45121
G1 X148.42 Y128.122 E12.48184
G1 X147.611 Y128.561 E12.51245
G1 X146.767 Y128.928 E12.54306
G1 X145.894 Y129.22 E12.57368
G1 X144.999 Y129.436 E12.6043
G1 X144.088 Y129.573 E12.63494
G1 X143.349 Y129.625 E12.65958
G1 X142.614 Y129.652 E12.68404
G1 X139.996 Y129.782 E12.77123
G1 X137.445 Y129.982 E12.85633
G1 X134.964 Y130.247 E12.93932
G1 X132.432 Y130.59 E13.0243
G1 X129.952 Y130.998 E13.1079
G1 X128.632 Y131.244 E13.15256
G1 X127.721 Y131.373 E13.18316
G1 X126.888 Y131.421 E13.21091
G1 X125.727 Y131.441 E13.24953
G1 X96.645 Y131.44 E14.2168
G1 X95.946 Y131.43 E14.24005
G1 X95.027 Y131.377 E14.27067
G1 X94.162 Y131.253 E14.29973
G1 X92.775 Y130.994 E14.34666
G1 X92.517 Y130.943 E14.35541
G1 X90.025 Y130.516 E14.4395
G1 X87.529 Y130.162 E14.52335
G1 X84.994 Y129.876 E14.6082
G1 X82.479 Y129.662 E14.69215
G1 X80.014 Y129.523 E14.77427
G1 X76.079 Y129.441 E14.90518
G1 X74.666 Y129.44 E14.95217
G1 X73.968 Y129.43 E14.97539
G1 X73.049 Y129.377 E15.00601
G1 X72.138 Y129.244 E15.03663
G1 X71.242 Y129.033 E15.06724
G1 X70.368 Y128.745 E15.09785
G1 X69.521 Y128.382 E15.1285
G1 X68.71 Y127.947 E15.15911
G1 X67.94 Y127.443 E15.18972
G1 X67.216 Y126.874 E15.22035
G1 X66.544 Y126.244 E15.25098
G1 X65.929 Y125.559 E15.2816
G1 X65.376 Y124.823 E15.31222
G1 X64.889 Y124.042 E15.34283
G1 X64.472 Y123.221 E15.37346
G1 X64.127 Y122.367 E15.40409
G1 X63.858 Y121.487 E15.4347
G1 X63.666 Y120.586 E15.46534
G1 X63.553 Y119.673 E15.49594
G1 X63.524 Y119.118 E15.51442
G1 X63.515 Y118.786 E15.52547
G1 X63.511 Y118.499 E15.53502
G1 X63.512 Y99.703 E16.16017
G1 X63.522 Y99.014 E16.18309
G1 X63.575 Y98.095 E16.21371
G1 X63.708 Y97.184 E16.24433
G1 X63.92 Y96.288 E16.27495
G1 X64.208 Y95.414 E16.30556
G1 X64.571 Y94.568 E16.33618
G1 X65.006 Y93.756 E16.36682
G1 X65.51 Y92.986 E16.39743
G1 X66.079 Y92.262 E16.42805
G1 X66.709 Y91.59 E16.45869
G1 X67.394 Y90.976 E16.48929
G1 X68.131 Y90.423 E16.51993
G0 F6000 X68.514 Y90.647
G1 F1200 X69.29 Y90.185 E16.54997
G1 X70.103 Y89.793 E16.57999
G1 X70.948 Y89.474 E16.61003
G1 X71.818 Y89.231 E16.64008
G1 X72.706 Y89.067 E16.67011
G1 X73.834 Y88.972 E16.70776
G1 X74.154 Y88.963 E16.71841
G1 X74.441 Y88.959 E16.72795
G1 X86.527 Y88.959 E17.12994
G1 X87.374 Y88.97 E17.15811
G1 X88.276 Y89.023 E17.18816
G1 X89.365 Y89.195 E17.22483
G1 X90.03 Y89.337 E17.24745
G1 X92.577 Y89.848 E17.33385
G1 X95.102 Y90.28 E17.41905
G1 X97.595 Y90.635 E17.50281
G1 X100.114 Y90.921 E17.58713
G1 X102.662 Y91.137 E17.67218
G1 X105.204 Y91.281 E17.75686
G1 X107.73 Y91.352 E17.84091
G1 X110.265 Y91.352 E17.92522
G1 X112.804 Y91.279 E18.00971
G1 X115.364 Y91.134 E18.09499
G1 X117.866 Y90.921 E18.17851
G1 X120.423 Y90.631 E18.2641
G1 X122.902 Y90.277 E18.34739
G1 X125.433 Y89.843 E18.4328
G1 X126.78 Y89.583 E18.47842
G1 X127.844 Y89.368 E18.51453
G1 X128.736 Y89.229 E18.54455
G1 X129.573 Y89.171 E18.57246
G1 X129.893 Y89.162 E18.58311
G1 X130.18 Y89.158 E18.59265
G1 X142.411 Y89.159 E18.99946
G1 X143.112 Y89.169 E19.02278
G1 X144.014 Y89.222 E19.05283
G1 X144.907 Y89.354 E19.08285
G1 X145.786 Y89.565 E19.11292
G1 X146.642 Y89.853 E19.14296
G1 X147.469 Y90.215 E19.17298
G1 X148.261 Y90.649 E19.20302
G1 X148.731 Y90.953 E19.22164
G1 X148.877 Y91.053 E19.22752
G1 X149.137 Y91.237 E19.23812
G1 X149.506 Y91.507 E19.25333
G1 X151.413 Y92.936 E19.33258
G1 X152.12 Y93.482 E19.3623
G1 X152.809 Y94.066 E19.39234
G1 X153.444 Y94.708 E19.42237
G1 X154.02 Y95.404 E19.45242
G1 X154.531 Y96.148 E19.48244
G1 X154.975 Y96.935 E19.51249
G1 X155.348 Y97.758 E19.54255
G1 X155.646 Y98.61 E19.57257
G1 X155.868 Y99.485 E19.60259
G1 X156.011 Y100.377 E19.63264
G1 X156.072 Y101.164 E19.65889
G1 X156.077 Y101.296 E19.66329
G1 X156.083 Y101.57 E19.6724
G1 X156.089 Y102.139 E19.69133
G1 X156.088 Y116.293 E20.16209
G1 X156.078 Y116.994 E20.18541
G1 X156.025 Y117.896 E20.21546
G1 X155.893 Y118.789 E20.24549
G1 X155.682 Y119.668 E20.27555
G1 X155.394 Y120.524 E20.30559
G1 X155.032 Y121.351 E20.33562
G1 X154.598 Y122.143 E20.36565
G1 X154.095 Y122.893 E20.39569
G1 X153.528 Y123.596 E20.42573
G1 X152.902 Y124.246 E20.45574
G1 X152.277 Y124.793 E20.48337
G1 X151.949 Y125.054 E20.49731
G1 X151.604 Y125.318 E20.51176
G1 X149.532 Y126.871 E20.59788
G1 X148.954 Y127.29 E20.62163
G1 X148.2 Y127.788 E20.65168
G1 X147.405 Y128.216 E20.68171
G1 X146.575 Y128.573 E20.71176
G1 X145.717 Y128.854 E20.74179
G1 X144.837 Y129.059 E20.77184
G1 X143.943 Y129.185 E20.80187
G1 X143.335 Y129.225 E20.82214
G1 X142.578 Y129.252 E20.84733
G1 X139.981 Y129.382 E20.93382
G1 X137.408 Y129.584 E21.01966
G1 X134.935 Y129.847 E21.10238
G1 X132.385 Y130.193 E21.18797
G1 X129.819 Y130.615 E21.27446
G1 X128.559 Y130.85 E21.31709
G1 X127.665 Y130.976 E21.34712
G1 X126.881 Y131.021 E21.37324
G1 X125.727 Y131.041 E21.41162
G1 X96.651 Y131.04 E22.37869
G1 X95.952 Y131.03 E22.40195
G1 X95.051 Y130.977 E22.43197
G1 X94.235 Y130.859 E22.45939
G1 X92.853 Y130.602 E22.50614
G1 X92.585 Y130.549 E22.51523
G1 X90.078 Y130.12 E22.59982
G1 X87.563 Y129.763 E22.68431
G1 X85.072 Y129.481 E22.76769
G1 X82.5 Y129.263 E22.85354
G1 X80.017 Y129.123 E22.93626
G1 X76.087 Y129.041 E23.067
G1 X74.672 Y129.04 E23.11406
G1 X73.974 Y129.03 E23.13728
G1 X73.072 Y128.977 E23.16733
G1 X72.179 Y128.845 E23.19736
G1 X71.301 Y128.634 E23.22739
G1 X70.445 Y128.346 E23.25743
G1 X69.618 Y127.984 E23.28746
G1 X68.826 Y127.549 E23.31751
G1 X68.075 Y127.047 E23.34755
G1 X67.372 Y126.48 E23.37759
G1 X66.722 Y125.853 E23.40763
G1 X66.13 Y125.171 E23.43767
G1 X65.6 Y124.44 E23.4677
G1 X65.138 Y123.664 E23.49774
G1 X64.745 Y122.851 E23.52777
G1 X64.427 Y122.006 E23.5578
G1 X64.184 Y121.136 E23.58784
G1 X64.019 Y120.248 E23.61789
G1 X63.924 Y119.107 E23.65597
G1 X63.915 Y118.775 E23.66701
G1 X63.911 Y118.499 E23.67619
G1 X63.912 Y99.709 E24.30115
G1 X63.922 Y99.02 E24.32407
G1 X63.975 Y98.118 E24.35412
G1 X64.108 Y97.225 E24.38415
G1 X64.319 Y96.347 E24.41419
G1 X64.607 Y95.491 E24.44422
G1 X64.969 Y94.664 E24.47425
G1 X65.404 Y93.872 E24.5043
G1 X65.906 Y93.122 E24.53432
G1 X66.473 Y92.419 E24.56436
G1 X67.1 Y91.769 E24.5944
G1 X67.782 Y91.177 E24.62444
G1 X68.514 Y90.647 E24.65449
G1 F2700 E19.65449
;MESH:Brilliant Snaget (4).stl
G0 F6000 X87.454 Y98.497
G0 X90.81 Y101.015
G0 X96.897 Y119.027
G0 X97.65 Y119.779
G0 X97.472 Y120.241
;TYPE:WALL-INNER
G1 F2700 E24.65449
G1 F1200 X97.812 Y119.901 E24.67049
G1 X103.561 Y114.151 E24.94092
G1 X119.112 Y114.151 E25.45815
G1 X124.862 Y119.901 E25.72862
G1 X125.202 Y120.241 E25.74461
G1 X124.722 Y120.241 E25.7532
G1 X124.721 Y120.241 E25.75323
G1 X97.953 Y120.241 E26.64354
G1 X97.952 Y120.241 E26.64357
G1 X97.472 Y120.241 E26.65216
G0 F6000 X97.08 Y120.403
G0 X96.506 Y120.641
;TYPE:WALL-OUTER
G1 F1200 X103.395 Y113.751 E26.97622
G1 X119.278 Y113.751 E27.50449
G1 X126.168 Y120.641 E27.82858
G1 X96.506 Y120.641 E28.81514
G0 F6000 X97.08 Y120.403
G0 X98.216 Y119.654
G0 X98.412 Y119.851
;TYPE:SKIN
G1 F1200 X103.721 Y114.541 E29.06488
G1 X118.952 Y114.541 E29.57147
G1 X124.262 Y119.851 E29.82123
G1 X98.412 Y119.851 E30.68101
G0 F6000 X99.061 Y119.426
G1 F1200 X99.325 Y119.689 E30.6934
G0 F6000 X99.344 Y119.143
G1 F1200 X99.89 Y119.689 E30.71908
G0 F6000 X100.456 Y119.689
G1 F1200 X99.627 Y118.86 E30.75808
G0 F6000 X99.909 Y118.577
G1 F1200 X101.022 Y119.689 E30.81041
G0 F6000 X101.587 Y119.689
G1 F1200 X100.192 Y118.294 E30.87602
G0 F6000 X100.475 Y118.011
G1 F1200 X102.153 Y119.689 E30.95495
G0 F6000 X102.719 Y119.689
G1 F1200 X100.758 Y117.729 E31.04717
G0 F6000 X101.041 Y117.446
G1 F1200 X103.284 Y119.689 E31.15267
G0 F6000 X103.85 Y119.689
G1 F1200 X101.323 Y117.162 E31.27153
G0 F6000 X101.606 Y116.879
G1 F1200 X104.416 Y119.689 E31.40371
G0 F6000 X104.982 Y119.689
G1 F1200 X101.889 Y116.596 E31.54919
G0 F6000 X102.171 Y116.314
G1 F1200 X105.547 Y119.689 E31.70796
G0 F6000 X106.113 Y119.689
G1 F1200 X102.454 Y116.031 E31.88005
G0 F6000 X102.737 Y115.748
G1 F1200 X106.679 Y119.689 E32.06545
G0 F6000 X107.244 Y119.689
G1 F1200 X103.02 Y115.465 E32.26413
G0 F6000 X103.303 Y115.182
G1 F1200 X107.81 Y119.689 E32.47613
G0 F6000 X108.376 Y119.689
G1 F1200 X103.586 Y114.899 E32.70143
G0 F6000 X103.953 Y114.701
G1 F1200 X108.941 Y119.689 E32.93605
G0 F6000 X109.507 Y119.689
G1 F1200 X104.518 Y114.701 E33.1707
G0 F6000 X105.084 Y114.701
G1 F1200 X110.073 Y119.689 E33.40534
G0 F6000 X110.638 Y119.689
G1 F1200 X105.65 Y114.701 E33.63996
G0 F6000 X106.215 Y114.701
G1 F1200 X111.204 Y119.689 E33.8746
G0 F6000 X111.77 Y119.69
G1 F1200 X106.781 Y114.701 E34.10927
G0 F6000 X107.347 Y114.701
G1 F1200 X112.336 Y119.69 E34.34394
G0 F6000 X112.902 Y119.69
G1 F1200 X107.912 Y114.701 E34.57863
G0 F6000 X108.478 Y114.701
G1 F1200 X113.468 Y119.69 E34.81332
G0 F6000 X114.033 Y119.69
