;FLAVOR:Marlin
;TIME:29494
;Filament used: 20.443m
;Layer height: 0.2
;MINX:26.994
;MINY:32.45
;MINZ:0.2
;MAXX:191.832
;MAXY:194.709
;MAXZ:32
;Generated with Cura_SteamEngine 4.8.0
M140 S50
M105
M190 S50
M104 S210
M105
M109 S210
M82 ;absolute extrusion mode
M201 X500.00 Y500.00 Z100.00 E5000.00 ;Setup machine max acceleration
M203 X500.00 Y500.00 Z10.00 E50.00 ;Setup machine max feedrate
M204 P500.00 R1000.00 T500.00 ;Setup Print/Retract/Travel acceleration
M205 X8.00 Y8.00 Z0.40 E5.00 ;Setup Jerk
M220 S100 ;Reset Feedrate
M221 S100 ;Reset Flowrate

G28 ;Home

G92 E0 ;Reset Extruder
G1 Z2.0 F3000 ;Move Z Axis up
G1 X10.1 Y20 Z0.28 F5000.0 ;Move to start position
G1 X10.1 Y200.0 Z0.28 F1500.0 E15 ;Draw the first line
G1 X10.4 Y200.0 Z0.28 F5000.0 ;Move to side a little
G1 X10.4 Y20 Z0.28 F1500.0 E30 ;Draw the second line
G92 E0 ;Reset Extruder
G1 Z2.0 F3000 ;Move Z Axis up

G92 E0
G92 E0
G1 F2700 E-5
;LAYER_COUNT:160
;LAYER:0
M107
G0 F6000 X31.62 Y44.568 Z0.2
;TYPE:SKIRT
G1 F2700 E0
G1 F1200 X32.406 Y44.056 E0.0312
G1 X33.233 Y43.614 E0.06239
G1 X34.095 Y43.244 E0.09359
G1 X34.985 Y42.948 E0.12478
G1 X35.897 Y42.73 E0.15597
G1 X36.824 Y42.589 E0.18716
G1 X37.695 Y42.53 E0.21619
G1 X38.016 Y42.521 E0.22687
G1 X38.324 Y42.517 E0.23712
G1 X40.243 Y42.518 E0.30095
G1 X40.944 Y42.528 E0.32426
G1 X41.88 Y42.581 E0.35544
G1 X42.809 Y42.714 E0.38666
G1 X43.722 Y42.926 E0.41783
G1 X44.615 Y43.214 E0.44904
G1 X45.479 Y43.578 E0.48022
G1 X46.31 Y44.014 E0.51144
G1 X47.1 Y44.519 E0.54262
G1 X47.844 Y45.089 E0.57379
G1 X48.537 Y45.721 E0.60499
G1 X49.174 Y46.41 E0.6362
G1 X49.75 Y47.15 E0.66739
G1 X50.261 Y47.937 E0.6986
G1 X50.674 Y48.705 E0.7276
G1 X51.154 Y49.689 E0.76402
G1 X52.323 Y52.002 E0.85021
G1 X53.532 Y54.237 E0.93473
G1 X54.775 Y56.385 E1.01727
G1 X56.103 Y58.538 E1.10141
G1 X57.501 Y60.667 E1.18612
G1 X58.927 Y62.709 E1.26896
G1 X60.425 Y64.731 E1.35266
G1 X61.977 Y66.708 E1.43625
G1 X63.587 Y68.641 E1.51992
G1 X65.259 Y70.537 E1.604
G1 X66.979 Y72.382 E1.6879
G1 X68.723 Y74.15 E1.7705
G1 X70.563 Y75.91 E1.85518
G1 X72.427 Y77.595 E1.93876
G1 X74.336 Y79.226 E2.02227
G1 X76.313 Y80.821 E2.10675
G1 X78.303 Y82.334 E2.1899
G1 X80.354 Y83.806 E2.27387
G1 X82.418 Y85.198 E2.35667
G1 X84.583 Y86.573 E2.44197
G1 X86.714 Y87.842 E2.52447
G1 X88.913 Y89.068 E2.6082
G1 X91.171 Y90.247 E2.69293
G1 X93.424 Y91.341 E2.77623
G1 X95.703 Y92.37 E2.8594
G1 X98.063 Y93.358 E2.94449
G1 X100.398 Y94.254 E3.02768
G1 X102.732 Y95.078 E3.11
G1 X105.172 Y95.862 E3.19524
G1 X107.558 Y96.555 E3.27788
G1 X110.011 Y97.192 E3.36217
G1 X112.49 Y97.764 E3.44679
G1 X114.91 Y98.247 E3.52887
G1 X117.424 Y98.677 E3.6137
G1 X119.915 Y99.032 E3.69739
G1 X122.378 Y99.311 E3.77983
G1 X124.941 Y99.528 E3.86538
G1 X127.393 Y99.667 E3.94707
G1 X131.207 Y99.749 E4.07395
G1 X178.723 Y99.785 E5.65434
G1 X179.777 Y99.792 E5.6894
G1 X180.714 Y99.832 E5.72059
G1 X181.644 Y99.952 E5.75178
G1 X182.623 Y100.166 E5.78511
G1 X183.03 Y100.275 E5.79912
G1 X183.924 Y100.556 E5.83029
G1 X184.792 Y100.913 E5.86151
G1 X185.626 Y101.342 E5.8927
G1 X186.421 Y101.84 E5.9239
G1 X187.212 Y102.439 E5.9569
G1 X187.637 Y102.792 E5.97528
G1 X188.333 Y103.422 E6.0065
G1 X188.972 Y104.108 E6.03768
G1 X189.55 Y104.846 E6.06886
G1 X190.063 Y105.631 E6.10005
G1 X190.456 Y106.352 E6.12736
G1 X190.57 Y106.581 E6.13587
G1 X190.952 Y107.438 E6.16708
G1 X191.26 Y108.324 E6.19828
G1 X191.543 Y109.503 E6.2386
G1 X191.599 Y109.809 E6.24895
G1 X191.729 Y110.738 E6.28015
G1 X191.77 Y111.337 E6.30012
G1 X191.776 Y111.483 E6.30498
G1 X191.784 Y111.813 E6.31596
G1 X191.789 Y112.29 E6.33183
G1 X191.832 Y179.237 E8.55849
G1 X191.827 Y182.175 E8.65621
G1 X191.816 Y182.864 E8.67913
G1 X191.761 Y183.8 E8.71031
G1 X191.626 Y184.728 E8.74151
G1 X191.413 Y185.641 E8.77269
G1 X191.123 Y186.533 E8.80388
G1 X190.758 Y187.397 E8.83508
G1 X190.483 Y187.938 E8.85526
G1 X190.006 Y188.746 E8.88647
G1 X189.461 Y189.509 E8.91766
G1 X188.853 Y190.223 E8.94885
G1 X188.187 Y190.883 E8.98004
G1 X187.614 Y191.369 E9.00503
G1 X186.741 Y192.06 E9.04206
G1 X186.266 Y192.416 E9.0618
G1 X186.102 Y192.532 E9.06848
G1 X185.431 Y192.97 E9.09513
G1 X185.179 Y193.122 E9.10492
G1 X184.356 Y193.572 E9.13612
G1 X183.498 Y193.95 E9.1673
G1 X182.611 Y194.253 E9.19848
G1 X181.701 Y194.48 E9.22967
G1 X180.775 Y194.629 E9.26087
G1 X179.88 Y194.696 E9.29072
G1 X179.43 Y194.707 E9.30569
G1 X178.848 Y194.709 E9.32505
G1 X157.355 Y194.582 E10.03992
G1 X38.956 Y194.582 E13.97789
G1 X38.019 Y194.542 E14.00908
G1 X37.089 Y194.422 E14.04027
G1 X36.172 Y194.224 E14.07147
G1 X35.276 Y193.948 E14.10265
G1 X34.116 Y193.46 E14.14451
G1 X33.967 Y193.387 E14.15003
G1 X33.144 Y192.939 E14.18119
G1 X32.361 Y192.422 E14.2124
G1 X31.625 Y191.841 E14.24359
G1 X30.941 Y191.199 E14.27479
G1 X30.115 Y190.25 E14.31664
G1 X29.741 Y189.766 E14.33698
G1 X29.528 Y189.482 E14.34879
G1 X28.998 Y188.708 E14.37999
G1 X28.535 Y187.892 E14.41119
G1 X28.144 Y187.04 E14.44237
G1 X27.827 Y186.157 E14.47358
G1 X27.684 Y185.656 E14.4909
G1 X27.635 Y185.468 E14.49737
G1 X27.437 Y184.552 E14.52854
G1 X27.318 Y183.621 E14.55975
G1 X27.284 Y183.02 E14.57978
G1 X27.276 Y182.75 E14.58876
G1 X27.271 Y182.418 E14.5998
G1 X27.299 Y132.08 E16.27405
G1 X27.346 Y112.418 E16.92801
G1 X27.359 Y111.603 E16.95512
G1 X27.447 Y110.383 E16.99581
G1 X27.482 Y110.111 E17.00493
G1 X27.612 Y109.324 E17.03146
G1 X27.688 Y108.95 E17.04415
G1 X28.17 Y106.397 E17.13057
G1 X28.562 Y103.942 E17.21325
G1 X28.892 Y101.423 E17.29775
G1 X29.146 Y98.931 E17.38107
G1 X29.33 Y96.434 E17.46434
G1 X29.446 Y93.879 E17.54941
G1 X29.488 Y91.393 E17.63211
G1 X29.459 Y88.867 E17.71613
G1 X29.36 Y86.381 E17.79888
G1 X29.185 Y83.811 E17.88455
G1 X28.948 Y81.341 E17.96708
G1 X28.634 Y78.841 E18.05089
G1 X28.251 Y76.35 E18.13471
G1 X27.803 Y73.902 E18.21748
G1 X27.312 Y71.607 E18.29554
G1 X27.218 Y71.139 E18.31142
G1 X27.073 Y70.213 E18.34259
G1 X27.007 Y69.277 E18.3738
G1 X26.998 Y68.951 E18.38465
G1 X26.994 Y68.647 E18.39476
G1 X26.995 Y54.042 E18.88053
G1 X27.004 Y53.377 E18.90265
G1 X27.057 Y52.441 E18.93383
G1 X27.189 Y51.512 E18.96504
G1 X27.4 Y50.598 E18.99624
G1 X27.688 Y49.706 E19.02741
G1 X28.051 Y48.841 E19.05861
G1 X28.486 Y48.01 E19.08981
G1 X28.99 Y47.22 E19.12098
G1 X29.56 Y46.475 E19.15218
G1 X30.192 Y45.781 E19.1834
G1 X30.88 Y45.144 E19.21458
G1 X31.62 Y44.568 E19.24577
G0 F6000 X32.004 Y44.787
G1 F1200 X32.785 Y44.299 E19.2764
G1 X33.605 Y43.881 E19.30701
G1 X34.459 Y43.536 E19.33765
G1 X35.339 Y43.266 E19.36826
G1 X36.239 Y43.074 E19.39887
G1 X37.153 Y42.96 E19.42951
G1 X37.706 Y42.93 E19.44793
G1 X38.027 Y42.921 E19.45861
G1 X38.324 Y42.917 E19.46849
G1 X40.237 Y42.918 E19.53211
G1 X40.938 Y42.928 E19.55543
G1 X41.857 Y42.981 E19.58605
G1 X42.768 Y43.114 E19.61667
G1 X43.664 Y43.325 E19.64728
G1 X44.539 Y43.613 E19.67792
G1 X45.385 Y43.976 E19.70854
G1 X46.196 Y44.411 E19.73915
G1 X46.967 Y44.915 E19.76979
G1 X47.691 Y45.484 E19.80041
G1 X48.363 Y46.113 E19.83103
G1 X48.978 Y46.798 E19.86165
G1 X49.531 Y47.534 E19.89227
G1 X50.018 Y48.316 E19.92291
G1 X50.314 Y48.881 E19.94412
G1 X50.781 Y49.839 E19.97957
G1 X51.972 Y52.194 E20.06734
G1 X53.168 Y54.407 E20.15101
G1 X54.446 Y56.615 E20.23586
G1 X55.771 Y58.762 E20.31978
G1 X57.155 Y60.869 E20.40362
G1 X58.594 Y62.93 E20.48723
G1 X60.121 Y64.993 E20.57259
G1 X61.654 Y66.944 E20.65512
G1 X63.296 Y68.916 E20.74047
G1 X64.967 Y70.811 E20.8245
G1 X66.684 Y72.653 E20.90825
G1 X68.445 Y74.437 E20.99163
G1 X70.301 Y76.213 E21.07707
G1 X72.144 Y77.88 E21.15972
G1 X74.108 Y79.558 E21.24564
G1 X76.048 Y81.123 E21.32854
G1 X78.05 Y82.645 E21.41219
G1 X80.12 Y84.13 E21.49692
G1 X82.226 Y85.551 E21.58142
G1 X84.344 Y86.895 E21.66485
G1 X86.52 Y88.191 E21.74909
G1 X88.74 Y89.429 E21.83363
G1 X90.99 Y90.604 E21.91806
G1 X93.234 Y91.694 E22.00103
G1 X95.563 Y92.746 E22.08603
G1 X97.89 Y93.719 E22.16992
G1 X100.27 Y94.633 E22.25472
G1 X102.613 Y95.46 E22.33736
G1 X105.053 Y96.244 E22.4226
G1 X107.451 Y96.941 E22.50566
G1 X109.918 Y97.582 E22.59043
G1 X112.395 Y98.152 E22.67497
G1 X114.871 Y98.647 E22.75895
G1 X117.337 Y99.069 E22.84216
G1 X119.851 Y99.427 E22.92662
G1 X122.37 Y99.712 E23.01094
G1 X124.885 Y99.925 E23.09489
G1 X127.361 Y100.066 E23.17738
G1 X131.246 Y100.149 E23.30662
G1 X178.72 Y100.185 E24.88561
G1 X179.777 Y100.192 E24.92077
G1 X180.697 Y100.232 E24.9514
G1 X181.61 Y100.352 E24.98203
G1 X182.519 Y100.553 E25.01299
G1 X182.926 Y100.662 E25.027
G1 X183.804 Y100.938 E25.05761
G1 X184.655 Y101.29 E25.08824
G1 X185.472 Y101.714 E25.11886
G1 X186.249 Y102.208 E25.14948
G1 X186.957 Y102.747 E25.17908
G1 X187.382 Y103.1 E25.19745
G1 X188.064 Y103.718 E25.22807
G1 X188.69 Y104.394 E25.25871
G1 X189.254 Y105.121 E25.28931
G1 X189.754 Y105.894 E25.31993
G1 X190.098 Y106.53 E25.34398
G1 X190.212 Y106.759 E25.35249
G1 X190.586 Y107.6 E25.3831
G1 X190.886 Y108.471 E25.41374
G1 X191.15 Y109.575 E25.4515
G1 X191.206 Y109.881 E25.46184
G1 X191.332 Y110.793 E25.49247
G1 X191.37 Y111.354 E25.51117
G1 X191.376 Y111.5 E25.51603
G1 X191.384 Y111.818 E25.52661
G1 X191.389 Y112.29 E25.54231
G1 X191.432 Y179.236 E27.76894
G1 X191.427 Y182.168 E27.86646
G1 X191.416 Y182.857 E27.88938
G1 X191.361 Y183.776 E27.92
G1 X191.227 Y184.687 E27.95062
G1 X191.014 Y185.583 E27.98126
G1 X190.724 Y186.457 E28.01188
G1 X190.161 Y187.694 E28.05709
G1 X190.131 Y187.75 E28.0592
G1 X189.661 Y188.541 E28.0898
G1 X189.125 Y189.29 E28.12044
G1 X188.525 Y189.988 E28.15105
G1 X187.867 Y190.633 E28.1817
G1 X187.366 Y191.055 E28.20348
G1 X186.493 Y191.746 E28.24052
G1 X186.035 Y192.089 E28.25955
G1 X185.871 Y192.205 E28.26623
G1 X185.225 Y192.628 E28.29191
G1 X184.973 Y192.78 E28.3017
G1 X184.165 Y193.221 E28.33231
G1 X183.321 Y193.59 E28.36295
G1 X182.449 Y193.884 E28.39356
G1 X181.554 Y194.102 E28.4242
G1 X180.644 Y194.241 E28.45481
G1 X179.866 Y194.297 E28.48076
G1 X179.428 Y194.307 E28.49533
G1 X178.851 Y194.309 E28.51452
G1 X157.357 Y194.182 E29.22943
G1 X38.956 Y194.182 E33.16746
G1 X38.036 Y194.142 E33.19809
G1 X37.123 Y194.022 E33.22872
G1 X36.224 Y193.824 E33.25933
G1 X35.346 Y193.548 E33.28994
G1 X34.292 Y193.101 E33.32802
G1 X34.143 Y193.028 E33.33354
G1 X33.335 Y192.587 E33.36416
G1 X32.568 Y192.078 E33.39478
G1 X31.848 Y191.505 E33.42538
G1 X31.18 Y190.871 E33.45601
G1 X30.431 Y190.005 E33.49409
G1 X30.061 Y189.526 E33.51422
G1 X29.848 Y189.242 E33.52603
G1 X29.328 Y188.482 E33.55666
G1 X28.876 Y187.68 E33.58728
G1 X28.495 Y186.842 E33.6179
G1 X28.071 Y185.555 E33.66297
G1 X28.022 Y185.367 E33.66943
G1 X27.828 Y184.467 E33.70005
G1 X27.714 Y183.554 E33.73065
G1 X27.684 Y183.008 E33.74884
G1 X27.676 Y182.738 E33.75782
G1 X27.671 Y182.418 E33.76847
G1 X27.699 Y132.081 E35.44268
G1 X27.747 Y112.267 E36.1017
G1 X27.758 Y111.61 E36.12356
G1 X27.844 Y110.434 E36.16278
G1 X27.879 Y110.162 E36.1719
G1 X28.004 Y109.404 E36.19745
G1 X28.078 Y109.04 E36.2098
G1 X28.566 Y106.457 E36.29723
G1 X28.96 Y103.991 E36.38029
G1 X29.288 Y101.482 E36.46445
G1 X29.545 Y98.961 E36.54874
G1 X29.73 Y96.448 E36.63255
G1 X29.846 Y93.904 E36.71725
G1 X29.888 Y91.396 E36.80068
G1 X29.859 Y88.882 E36.8843
G1 X29.758 Y86.339 E36.96894
G1 X29.584 Y83.782 E37.05419
G1 X29.347 Y81.32 E37.13645
G1 X29.028 Y78.772 E37.22186
G1 X28.645 Y76.283 E37.30562
G1 X28.193 Y73.812 E37.38917
G1 X27.732 Y71.662 E37.4623
G1 X27.611 Y71.06 E37.48273
G1 X27.469 Y70.151 E37.51333
G1 X27.407 Y69.266 E37.54283
G1 X27.398 Y68.94 E37.55368
G1 X27.394 Y68.647 E37.56343
G1 X27.395 Y54.048 E38.04899
G1 X27.404 Y53.383 E38.07111
G1 X27.456 Y52.463 E38.10176
G1 X27.588 Y51.552 E38.13238
G1 X27.799 Y50.656 E38.16299
G1 X28.086 Y49.781 E38.19362
G1 X28.449 Y48.935 E38.22424
G1 X28.883 Y48.123 E38.25486
G1 X29.386 Y47.352 E38.28548
G1 X29.955 Y46.628 E38.31611
G1 X30.583 Y45.956 E38.3467
G1 X31.268 Y45.34 E38.37734
G1 X32.004 Y44.787 E38.40796
G0 F6000 X32.388 Y45.011
G1 F1200 X33.163 Y44.548 E38.43799
G1 X33.976 Y44.155 E38.46802
G1 X34.821 Y43.835 E38.49807
G1 X35.69 Y43.592 E38.52808
G1 X36.578 Y43.426 E38.55813
G1 X37.717 Y43.33 E38.59615
G1 X38.038 Y43.321 E38.60683
G1 X38.324 Y43.317 E38.61634
G1 X40.231 Y43.318 E38.67977
G1 X40.932 Y43.328 E38.70309
G1 X41.834 Y43.381 E38.73314
G1 X42.727 Y43.513 E38.76316
G1 X43.606 Y43.724 E38.79323
G1 X44.462 Y44.012 E38.82327
G1 X45.289 Y44.374 E38.85329
G1 X46.081 Y44.808 E38.88333
G1 X46.831 Y45.311 E38.91337
G1 X47.534 Y45.878 E38.94341
G1 X48.184 Y46.504 E38.97342
G1 X48.777 Y47.186 E39.00348
G1 X49.306 Y47.918 E39.03352
G1 X49.955 Y49.056 E39.07709
G1 X50.437 Y50.043 E39.11362
G1 X51.621 Y52.386 E39.20094
G1 X52.822 Y54.606 E39.28489
G1 X54.094 Y56.805 E39.36938
G1 X55.44 Y58.987 E39.45465
G1 X56.826 Y61.096 E39.53859
G1 X58.277 Y63.175 E39.62291
G1 X59.784 Y65.21 E39.70714
G1 X61.348 Y67.202 E39.79137
G1 X62.99 Y69.173 E39.8767
G1 X64.675 Y71.084 E39.96144
G1 X66.406 Y72.941 E40.04587
G1 X68.166 Y74.725 E40.12922
G1 X70.001 Y76.48 E40.21368
G1 X71.9 Y78.197 E40.29883
G1 X73.843 Y79.857 E40.38382
G1 X75.8 Y81.437 E40.46748
G1 X77.821 Y82.973 E40.55191
G1 X79.908 Y84.47 E40.63733
G1 X81.993 Y85.877 E40.72099
G1 X84.131 Y87.234 E40.80522
G1 X86.342 Y88.551 E40.89081
G1 X88.539 Y89.776 E40.97448
G1 X90.809 Y90.961 E41.05965
G1 X93.073 Y92.061 E41.14336
G1 X95.38 Y93.102 E41.22755
G1 X97.77 Y94.102 E41.31372
G1 X100.097 Y94.996 E41.39663
G1 X102.505 Y95.846 E41.48156
G1 X104.924 Y96.623 E41.56607
G1 X107.335 Y97.324 E41.64958
G1 X109.842 Y97.975 E41.73573
G1 X112.324 Y98.547 E41.82044
G1 X114.763 Y99.034 E41.90316
G1 X117.291 Y99.466 E41.98846
G1 X119.816 Y99.826 E42.07329
G1 X122.328 Y100.11 E42.15738
G1 X124.827 Y100.322 E42.24079
G1 X127.359 Y100.466 E42.32514
G1 X131.237 Y100.549 E42.45416
G1 X178.717 Y100.585 E44.03335
G1 X179.777 Y100.592 E44.0686
G1 X180.679 Y100.632 E44.09863
G1 X181.574 Y100.752 E44.12867
G1 X182.416 Y100.939 E44.15736
G1 X182.823 Y101.048 E44.17137
G1 X183.684 Y101.32 E44.2014
G1 X184.518 Y101.667 E44.23145
G1 X185.317 Y102.087 E44.26147
G1 X186.077 Y102.575 E44.29151
G1 X186.701 Y103.055 E44.31769
G1 X187.126 Y103.408 E44.33607
G1 X187.795 Y104.015 E44.36611
G1 X188.407 Y104.679 E44.39615
G1 X188.958 Y105.394 E44.42617
G1 X189.443 Y106.156 E44.45621
G1 X189.74 Y106.708 E44.47706
G1 X189.854 Y106.937 E44.48557
G1 X190.22 Y107.763 E44.51562
G1 X190.512 Y108.618 E44.54567
G1 X190.756 Y109.647 E44.58084
G1 X190.812 Y109.953 E44.59119
G1 X190.935 Y110.848 E44.62124
G1 X190.97 Y111.37 E44.63864
G1 X190.976 Y111.516 E44.6435
G1 X190.984 Y111.822 E44.65368
G1 X190.989 Y112.29 E44.66925
G1 X191.032 Y179.236 E46.89588
G1 X191.027 Y182.162 E46.9932
G1 X191.016 Y182.851 E47.01612
G1 X190.961 Y183.752 E47.04614
G1 X190.827 Y184.645 E47.07617
G1 X190.615 Y185.523 E47.10622
G1 X190.326 Y186.379 E47.13627
G1 X189.808 Y187.505 E47.17749
G1 X189.778 Y187.561 E47.1796
G1 X189.317 Y188.337 E47.20962
G1 X188.789 Y189.07 E47.23967
G1 X188.198 Y189.753 E47.26971
G1 X187.549 Y190.381 E47.29975
G1 X187.117 Y190.742 E47.31847
G1 X186.244 Y191.433 E47.3555
G1 X185.804 Y191.762 E47.37378
G1 X185.64 Y191.878 E47.38046
G1 X185.018 Y192.285 E47.40518
G1 X184.766 Y192.437 E47.41497
G1 X183.973 Y192.869 E47.445
G1 X183.145 Y193.229 E47.47503
G1 X182.288 Y193.514 E47.50507
G1 X181.409 Y193.722 E47.53511
G1 X180.515 Y193.852 E47.56516
G1 X179.853 Y193.897 E47.58723
G1 X179.426 Y193.907 E47.60144
G1 X178.853 Y193.909 E47.6205
G1 X157.358 Y193.782 E48.33543
G1 X38.956 Y193.782 E52.2735
G1 X38.054 Y193.742 E52.30353
G1 X37.159 Y193.622 E52.33357
G1 X36.278 Y193.424 E52.3636
G1 X35.418 Y193.149 E52.39363
G1 X34.468 Y192.742 E52.428
G1 X34.319 Y192.669 E52.43352
G1 X33.527 Y192.236 E52.46354
G1 X32.776 Y191.735 E52.49357
G1 X32.072 Y191.169 E52.52361
G1 X31.42 Y190.543 E52.55368
G1 X30.747 Y189.76 E52.58802
G1 X30.381 Y189.286 E52.60794
G1 X30.168 Y189.002 E52.61974
G1 X29.659 Y188.256 E52.64978
G1 X29.217 Y187.468 E52.67983
G1 X28.847 Y186.644 E52.70987
G1 X28.458 Y185.455 E52.75148
G1 X28.409 Y185.267 E52.75794
G1 X28.22 Y184.383 E52.78801
G1 X28.11 Y183.487 E52.81804
G1 X28.083 Y182.996 E52.83439
G1 X28.075 Y182.726 E52.84338
G1 X28.071 Y182.418 E52.85362
G1 X28.099 Y132.082 E54.5278
